ZITingHUANG1/iiwa-robot-path-planning-and-control/data/logs/log_test1.log
X	Y	Z	A	B	C	ET0	ET1	ET2	ET3	ET4	ET5	ET6	J0	J1	J2	J3	J4	J5	J6	TIME	
665.530	67.874	-120.347	2.209	-0.057	-3.078	-0.071	0.929	-0.010	0.024	0.070	-0.077	-0.023	-0.043	1.298	0.294	-0.963	-0.322	1.004	1.171	1	
665.530	67.874	-120.346	2.209	-0.057	-3.078	-0.041	0.879	0.003	0.041	0.069	-0.078	-0.023	-0.043	1.298	0.294	-0.963	-0.322	1.004	1.171	29	
665.530	67.874	-120.346	2.209	-0.057	-3.078	-0.039	0.869	0.005	0.046	0.069	-0.078	-0.023	-0.043	1.298	0.294	-0.963	-0.322	1.004	1.171	35	
665.530	67.874	-120.346	2.209	-0.057	-3.078	-0.034	0.864	0.006	0.046	0.069	-0.078	-0.023	-0.043	1.298	0.294	-0.963	-0.322	1.004	1.171	39	
665.530	67.874	-120.347	2.209	-0.057	-3.078	-0.030	0.868	0.008	0.037	0.070	-0.078	-0.023	-0.043	1.298	0.294	-0.963	-0.322	1.004	1.171	43	
665.530	67.874	-120.347	2.209	-0.057	-3.078	-0.034	0.870	0.007	0.036	0.070	-0.078	-0.023	-0.043	1.298	0.294	-0.963	-0.322	1.004	1.171	51	
665.530	67.874	-120.347	2.209	-0.057	-3.078	-0.038	0.878	0.006	0.037	0.070	-0.078	-0.023	-0.043	1.298	0.294	-0.963	-0.322	1.004	1.171	54	
665.534	67.874	-120.343	2.209	-0.057	-3.078	-0.051	0.759	0.011	0.094	0.068	-0.081	-0.023	-0.043	1.298	0.294	-0.963	-0.322	1.004	1.171	60	
665.534	67.874	-120.344	2.209	-0.057	-3.078	-0.049	0.927	0.001	0.022	0.070	-0.079	-0.023	-0.043	1.298	0.294	-0.963	-0.322	1.004	1.171	63	
665.535	67.874	-120.343	2.209	-0.057	-3.078	-0.044	0.904	0.011	0.024	0.068	-0.079	-0.023	-0.043	1.298	0.294	-0.963	-0.322	1.004	1.171	66	
665.536	67.874	-120.343	2.209	-0.057	-3.078	-0.064	0.919	-0.007	0.019	0.078	-0.081	-0.022	-0.043	1.298	0.294	-0.963	-0.322	1.004	1.171	72	
665.536	67.874	-120.343	2.209	-0.057	-3.078	-0.058	0.935	-0.001	0.011	0.068	-0.075	-0.022	-0.043	1.298	0.294	-0.963	-0.322	1.004	1.171	75	
665.538	67.873	-120.342	2.209	-0.057	-3.078	-0.079	0.941	-0.013	0.026	0.072	-0.078	-0.021	-0.043	1.298	0.294	-0.963	-0.322	1.004	1.171	79	
665.537	67.874	-120.342	2.209	-0.057	-3.078	-0.070	0.958	-0.013	0.016	0.071	-0.079	-0.021	-0.043	1.298	0.294	-0.963	-0.322	1.004	1.171	84	
665.537	67.873	-120.342	2.209	-0.057	-3.078	-0.068	0.941	-0.013	0.021	0.073	-0.077	-0.021	-0.043	1.298	0.294	-0.963	-0.322	1.004	1.171	86	
665.537	67.874	-120.342	2.209	-0.057	-3.078	-0.083	0.947	-0.016	0.023	0.072	-0.075	-0.021	-0.043	1.298	0.294	-0.963	-0.322	1.004	1.171	89	
665.537	67.873	-120.342	2.209	-0.057	-3.078	-0.084	0.948	-0.017	0.023	0.070	-0.077	-0.021	-0.043	1.298	0.294	-0.963	-0.322	1.004	1.171	95	
665.537	67.873	-120.342	2.209	-0.057	-3.078	-0.084	0.936	-0.013	0.027	0.070	-0.077	-0.021	-0.043	1.298	0.294	-0.963	-0.322	1.004	1.171	97	
665.537	67.873	-120.342	2.209	-0.057	-3.078	-0.079	0.929	-0.012	0.030	0.073	-0.078	-0.021	-0.043	1.298	0.294	-0.963	-0.322	1.004	1.171	100	
665.537	67.873	-120.342	2.209	-0.057	-3.078	-0.080	0.938	-0.011	0.027	0.068	-0.079	-0.021	-0.043	1.298	0.294	-0.963	-0.322	1.004	1.171	103	
665.537	67.873	-120.342	2.209	-0.057	-3.078	-0.082	0.923	-0.012	0.035	0.070	-0.079	-0.021	-0.043	1.298	0.294	-0.963	-0.322	1.004	1.171	107	
665.537	67.873	-120.342	2.209	-0.057	-3.078	-0.078	0.926	-0.008	0.029	0.069	-0.079	-0.021	-0.043	1.298	0.294	-0.963	-0.322	1.004	1.171	110	
665.537	67.873	-120.342	2.209	-0.057	-3.078	-0.075	0.917	-0.007	0.029	0.070	-0.080	-0.021	-0.043	1.298	0.294	-0.963	-0.322	1.004	1.171	113	
665.537	67.873	-120.342	2.209	-0.057	-3.078	-0.075	0.911	-0.008	0.027	0.069	-0.080	-0.021	-0.043	1.298	0.294	-0.963	-0.322	1.004	1.171	118	
665.537	67.873	-120.342	2.209	-0.057	-3.078	-0.064	0.904	-0.005	0.026	0.068	-0.080	-0.021	-0.043	1.298	0.294	-0.963	-0.322	1.004	1.171	122	
665.537	67.873	-120.342	2.209	-0.057	-3.078	-0.053	0.892	-0.003	0.029	0.069	-0.081	-0.020	-0.043	1.298	0.294	-0.963	-0.322	1.004	1.171	127	
665.537	67.873	-120.342	2.209	-0.057	-3.078	-0.053	0.896	-0.001	0.028	0.068	-0.081	-0.020	-0.043	1.298	0.294	-0.963	-0.322	1.004	1.171	132	
665.537	67.873	-120.342	2.209	-0.057	-3.078	-0.045	0.890	0.001	0.029	0.069	-0.081	-0.020	-0.043	1.298	0.294	-0.963	-0.322	1.004	1.171	134	
665.537	67.873	-120.342	2.209	-0.057	-3.078	-0.041	0.889	0.004	0.026	0.069	-0.081	-0.020	-0.043	1.298	0.294	-0.963	-0.322	1.004	1.171	137	
665.537	67.873	-120.342	2.209	-0.057	-3.078	-0.032	0.869	0.010	0.031	0.070	-0.081	-0.020	-0.043	1.298	0.294	-0.963	-0.322	1.004	1.171	139	
665.537	67.873	-120.342	2.209	-0.057	-3.078	-0.033	0.883	0.010	0.027	0.069	-0.081	-0.020	-0.043	1.298	0.294	-0.963	-0.322	1.004	1.171	144	
665.537	67.873	-120.342	2.209	-0.057	-3.078	-0.028	0.870	0.012	0.033	0.069	-0.081	-0.020	-0.043	1.298	0.294	-0.963	-0.322	1.004	1.171	147	
665.537	67.873	-120.342	2.209	-0.057	-3.078	-0.026	0.878	0.014	0.031	0.070	-0.082	-0.021	-0.043	1.298	0.294	-0.963	-0.322	1.004	1.171	149	
665.537	67.873	-120.342	2.209	-0.057	-3.078	-0.019	0.875	0.016	0.036	0.070	-0.082	-0.021	-0.043	1.298	0.294	-0.963	-0.322	1.004	1.171	154	
665.537	67.873	-120.342	2.209	-0.057	-3.078	-0.022	0.875	0.016	0.038	0.070	-0.082	-0.021	-0.043	1.298	0.294	-0.963	-0.322	1.004	1.171	157	
665.537	67.873	-120.342	2.209	-0.057	-3.078	-0.024	0.876	0.015	0.039	0.070	-0.082	-0.021	-0.043	1.298	0.294	-0.963	-0.322	1.004	1.171	160	
665.537	67.873	-120.342	2.209	-0.057	-3.078	-0.030	0.881	0.013	0.036	0.070	-0.082	-0.021	-0.043	1.298	0.294	-0.963	-0.322	1.004	1.171	166	
665.537	67.873	-120.342	2.209	-0.057	-3.078	-0.033	0.881	0.012	0.035	0.071	-0.082	-0.021	-0.043	1.298	0.294	-0.963	-0.322	1.004	1.171	169	
665.537	67.873	-120.342	2.209	-0.057	-3.078	-0.041	0.891	0.008	0.031	0.070	-0.082	-0.021	-0.043	1.298	0.294	-0.963	-0.322	1.004	1.171	172	
665.537	67.873	-120.342	2.209	-0.057	-3.078	-0.048	0.888	0.005	0.031	0.070	-0.082	-0.021	-0.043	1.298	0.294	-0.963	-0.322	1.004	1.171	175	
665.537	67.873	-120.342	2.209	-0.057	-3.078	-0.050	0.903	0.003	0.026	0.070	-0.082	-0.021	-0.043	1.298	0.294	-0.963	-0.322	1.004	1.171	180	
665.537	67.873	-120.342	2.209	-0.057	-3.078	-0.057	0.903	0.000	0.026	0.070	-0.082	-0.021	-0.043	1.298	0.294	-0.963	-0.322	1.004	1.171	183	
665.537	67.873	-120.342	2.209	-0.057	-3.078	-0.061	0.908	-0.002	0.023	0.070	-0.082	-0.021	-0.043	1.298	0.294	-0.963	-0.322	1.004	1.171	185	
665.537	67.873	-120.342	2.209	-0.057	-3.078	-0.066	0.910	-0.004	0.022	0.070	-0.082	-0.021	-0.043	1.298	0.294	-0.963	-0.322	1.004	1.171	191	
665.537	67.873	-120.342	2.209	-0.057	-3.078	-0.065	0.919	-0.005	0.020	0.071	-0.082	-0.021	-0.043	1.298	0.294	-0.963	-0.322	1.004	1.171	196	
665.537	67.873	-120.342	2.209	-0.057	-3.078	-0.070	0.917	-0.006	0.025	0.070	-0.082	-0.021	-0.043	1.298	0.294	-0.963	-0.322	1.004	1.171	202	
665.537	67.873	-120.342	2.209	-0.057	-3.078	-0.066	0.917	-0.004	0.025	0.071	-0.082	-0.021	-0.043	1.298	0.294	-0.963	-0.322	1.004	1.171	205	
665.537	67.873	-120.342	2.209	-0.057	-3.078	-0.064	0.918	-0.004	0.025	0.071	-0.082	-0.021	-0.043	1.298	0.294	-0.963	-0.322	1.004	1.171	208	
665.537	67.873	-120.342	2.209	-0.057	-3.078	-0.061	0.918	-0.002	0.026	0.071	-0.083	-0.021	-0.043	1.298	0.294	-0.963	-0.322	1.004	1.171	211	
665.537	67.873	-120.342	2.209	-0.057	-3.078	-0.056	0.913	0.000	0.026	0.072	-0.082	-0.021	-0.043	1.298	0.294	-0.963	-0.322	1.004	1.171	216	
665.537	67.873	-120.342	2.209	-0.057	-3.078	-0.048	0.909	0.002	0.027	0.072	-0.082	-0.021	-0.043	1.298	0.294	-0.963	-0.322	1.004	1.171	218	
665.537	67.873	-120.342	2.209	-0.057	-3.078	-0.049	0.910	0.003	0.027	0.072	-0.082	-0.021	-0.043	1.298	0.294	-0.963	-0.322	1.004	1.171	221	
665.537	67.873	-120.342	2.209	-0.057	-3.078	-0.041	0.916	0.006	0.023	0.073	-0.082	-0.021	-0.043	1.298	0.294	-0.963	-0.322	1.004	1.171	227	
665.537	67.873	-120.342	2.209	-0.057	-3.078	-0.042	0.915	0.006	0.023	0.072	-0.082	-0.021	-0.043	1.298	0.294	-0.963	-0.322	1.004	1.171	231	
665.537	67.873	-120.342	2.209	-0.057	-3.078	-0.041	0.904	0.006	0.025	0.073	-0.082	-0.021	-0.043	1.298	0.294	-0.963	-0.322	1.004	1.171	234	
665.537	67.873	-120.342	2.209	-0.057	-3.078	-0.041	0.912	0.005	0.020	0.072	-0.082	-0.021	-0.043	1.298	0.294	-0.963	-0.322	1.004	1.171	239	
665.537	67.873	-120.342	2.209	-0.057	-3.078	-0.043	0.906	0.005	0.022	0.072	-0.082	-0.021	-0.043	1.298	0.294	-0.963	-0.322	1.004	1.171	243	
665.537	67.873	-120.342	2.209	-0.057	-3.078	-0.044	0.896	0.005	0.026	0.072	-0.082	-0.021	-0.043	1.298	0.294	-0.963	-0.322	1.004	1.171	246	
665.537	67.873	-120.342	2.209	-0.057	-3.078	-0.042	0.899	0.005	0.024	0.071	-0.082	-0.021	-0.043	1.298	0.294	-0.963	-0.322	1.004	1.171	251	
665.537	67.873	-120.342	2.209	-0.057	-3.078	-0.046	0.899	0.005	0.026	0.071	-0.082	-0.021	-0.043	1.298	0.294	-0.963	-0.322	1.004	1.171	254	
665.537	67.873	-120.342	2.209	-0.057	-3.078	-0.048	0.890	0.005	0.030	0.071	-0.082	-0.020	-0.043	1.298	0.294	-0.963	-0.322	1.004	1.171	257	
665.537	67.873	-120.342	2.209	-0.057	-3.078	-0.049	0.882	0.004	0.033	0.071	-0.082	-0.020	-0.043	1.298	0.294	-0.963	-0.322	1.004	1.171	263	
665.537	67.873	-120.342	2.209	-0.057	-3.078	-0.053	0.881	0.003	0.032	0.071	-0.082	-0.020	-0.043	1.298	0.294	-0.963	-0.322	1.004	1.171	266	
665.537	67.873	-120.342	2.209	-0.057	-3.078	-0.051	0.876	0.004	0.034	0.071	-0.083	-0.020	-0.043	1.298	0.294	-0.963	-0.322	1.004	1.171	269	
665.537	67.873	-120.342	2.209	-0.057	-3.078	-0.051	0.871	0.004	0.037	0.071	-0.083	-0.020	-0.043	1.298	0.294	-0.963	-0.322	1.004	1.171	275	
665.537	67.873	-120.342	2.209	-0.057	-3.078	-0.056	0.872	0.003	0.038	0.071	-0.083	-0.020	-0.043	1.298	0.294	-0.963	-0.322	1.004	1.171	278	
665.538	67.873	-120.342	2.209	-0.057	-3.078	-0.051	0.861	0.004	0.042	0.071	-0.083	-0.020	-0.043	1.298	0.294	-0.963	-0.322	1.004	1.171	280	
665.537	67.873	-120.342	2.209	-0.057	-3.078	-0.052	0.875	0.003	0.039	0.071	-0.083	-0.020	-0.043	1.298	0.294	-0.963	-0.322	1.004	1.171	282	
665.537	67.873	-120.342	2.209	-0.057	-3.078	-0.055	0.872	0.002	0.040	0.070	-0.084	-0.020	-0.043	1.298	0.294	-0.963	-0.322	1.004	1.171	287	
665.537	67.873	-120.341	2.209	-0.057	-3.078	-0.054	0.869	0.002	0.040	0.070	-0.084	-0.020	-0.043	1.298	0.294	-0.963	-0.322	1.004	1.171	290	
665.537	67.873	-120.341	2.209	-0.057	-3.078	-0.058	0.885	0.000	0.032	0.070	-0.084	-0.020	-0.043	1.298	0.294	-0.963	-0.322	1.004	1.171	293	
665.538	67.873	-120.341	2.209	-0.057	-3.078	-0.054	0.883	0.002	0.032	0.070	-0.085	-0.020	-0.043	1.298	0.294	-0.963	-0.322	1.004	1.171	295	
665.538	67.873	-120.341	2.209	-0.057	-3.078	-0.056	0.888	0.002	0.030	0.070	-0.085	-0.020	-0.043	1.298	0.294	-0.963	-0.322	1.004	1.171	300	
665.550	67.864	-119.673	2.209	-0.057	-3.078	-0.066	1.280	-0.041	-0.060	0.042	-0.140	-0.018	-0.043	1.297	0.294	-0.964	-0.322	1.004	1.171	387	
665.537	67.867	-119.614	2.209	-0.057	-3.078	-0.001	1.180	-0.028	-0.042	0.035	-0.146	-0.017	-0.043	1.297	0.294	-0.964	-0.322	1.004	1.171	390	
665.524	67.872	-119.530	2.209	-0.057	-3.078	0.012	1.072	-0.019	0.002	0.031	-0.149	-0.017	-0.043	1.297	0.294	-0.964	-0.322	1.005	1.171	394	
665.518	67.875	-119.486	2.209	-0.057	-3.078	0.024	1.099	-0.016	-0.005	0.028	-0.151	-0.016	-0.043	1.297	0.294	-0.964	-0.322	1.005	1.171	396	
665.511	67.878	-119.443	2.209	-0.057	-3.078	0.053	1.253	-0.017	-0.069	0.028	-0.152	-0.016	-0.043	1.297	0.294	-0.964	-0.322	1.005	1.171	398	
665.505	67.880	-119.400	2.209	-0.057	-3.078	0.059	1.323	-0.019	-0.084	0.028	-0.156	-0.015	-0.043	1.296	0.294	-0.964	-0.322	1.005	1.171	400	
665.499	67.883	-119.356	2.209	-0.057	-3.078	0.085	1.318	-0.008	-0.079	0.026	-0.162	-0.015	-0.043	1.296	0.294	-0.964	-0.322	1.005	1.171	402	
665.488	67.888	-119.263	2.209	-0.057	-3.078	0.085	1.215	0.002	-0.034	0.023	-0.167	-0.014	-0.043	1.296	0.294	-0.964	-0.322	1.005	1.171	406	
665.484	67.890	-119.213	2.209	-0.057	-3.078	0.094	1.049	0.018	0.019	0.021	-0.172	-0.014	-0.043	1.296	0.294	-0.964	-0.322	1.005	1.171	408	
665.480	67.891	-119.162	2.209	-0.057	-3.078	0.095	1.034	0.026	0.020	0.020	-0.175	-0.013	-0.043	1.296	0.294	-0.964	-0.322	1.005	1.171	410	
665.475	67.892	-119.110	2.209	-0.057	-3.078	0.079	1.032	0.026	0.024	0.019	-0.176	-0.013	-0.043	1.296	0.294	-0.964	-0.322	1.005	1.171	412	
665.470	67.893	-119.057	2.209	-0.057	-3.078	0.064	1.069	0.020	0.007	0.015	-0.177	-0.012	-0.043	1.296	0.294	-0.964	-0.322	1.005	1.171	414	
665.462	67.894	-118.949	2.209	-0.057	-3.078	0.066	1.034	0.021	0.027	0.012	-0.179	-0.011	-0.043	1.296	0.294	-0.964	-0.322	1.005	1.171	418	
665.461	67.895	-118.862	2.209	-0.057	-3.078	0.047	0.923	0.023	0.081	0.009	-0.183	-0.011	-0.043	1.296	0.294	-0.964	-0.322	1.005	1.171	421	
665.457	67.894	-118.745	2.209	-0.057	-3.078	0.037	1.019	0.013	0.065	0.005	-0.192	-0.009	-0.043	1.295	0.294	-0.965	-0.322	1.005	1.171	425	
665.453	67.893	-118.624	2.209	-0.057	-3.078	0.011	1.078	-0.006	0.050	0.001	-0.192	-0.008	-0.043	1.295	0.294	-0.965	-0.322	1.005	1.171	427	
665.453	67.892	-118.562	2.209	-0.057	-3.078	-0.007	1.043	-0.011	0.076	-0.002	-0.194	-0.008	-0.043	1.295	0.294	-0.965	-0.322	1.006	1.171	431	
665.454	67.891	-118.498	2.209	-0.057	-3.078	-0.022	1.030	-0.016	0.088	-0.003	-0.196	-0.007	-0.043	1.295	0.294	-0.965	-0.322	1.006	1.171	433	
665.454	67.890	-118.434	2.209	-0.057	-3.078	-0.025	1.070	-0.021	0.068	-0.004	-0.198	-0.007	-0.043	1.295	0.294	-0.965	-0.322	1.006	1.171	435	
665.454	67.888	-118.369	2.209	-0.057	-3.078	-0.026	1.178	-0.030	0.022	-0.003	-0.198	-0.006	-0.043	1.295	0.294	-0.965	-0.322	1.006	1.171	437	
665.452	67.885	-118.237	2.209	-0.057	-3.078	0.134	0.934	0.010	0.116	-0.015	-0.213	0.003	-0.043	1.294	0.294	-0.965	-0.321	1.006	1.171	439	
665.563	67.865	-116.545	2.209	-0.057	-3.078	0.115	0.944	0.007	0.111	-0.017	-0.212	0.004	-0.043	1.291	0.294	-0.967	-0.321	1.007	1.171	484	
665.574	67.861	-116.314	2.209	-0.057	-3.078	0.085	0.753	0.006	0.172	-0.019	-0.214	0.005	-0.043	1.291	0.294	-0.967	-0.321	1.007	1.171	487	
665.578	67.859	-116.219	2.209	-0.057	-3.078	0.061	0.687	0.006	0.202	-0.020	-0.216	0.006	-0.043	1.291	0.294	-0.967	-0.321	1.007	1.171	491	
665.583	67.856	-116.123	2.209	-0.057	-3.078	0.042	0.682	0.003	0.208	-0.021	-0.217	0.006	-0.043	1.290	0.294	-0.967	-0.321	1.007	1.171	493	
665.590	67.854	-116.026	2.209	-0.057	-3.078	0.029	0.662	0.003	0.218	-0.022	-0.221	0.007	-0.043	1.290	0.294	-0.967	-0.321	1.008	1.171	495	
665.479	67.879	-110.841	2.209	-0.057	-3.078	0.246	1.243	0.037	-0.009	-0.014	-0.213	0.026	-0.044	1.281	0.294	-0.972	-0.318	1.012	1.170	583	
665.479	67.879	-110.567	2.209	-0.057	-3.078	0.226	1.200	0.020	0.046	-0.019	-0.220	0.027	-0.044	1.280	0.294	-0.972	-0.318	1.012	1.170	589	
665.489	67.877	-110.002	2.209	-0.057	-3.078	0.209	1.288	-0.034	0.036	-0.029	-0.218	0.030	-0.044	1.279	0.294	-0.973	-0.318	1.013	1.170	598	
665.491	67.876	-109.790	2.209	-0.057	-3.078	0.188	1.515	-0.063	-0.067	-0.028	-0.214	0.031	-0.044	1.279	0.294	-0.973	-0.318	1.013	1.170	601	
665.491	67.875	-109.648	2.209	-0.057	-3.078	0.171	1.620	-0.078	-0.123	-0.026	-0.209	0.032	-0.044	1.278	0.294	-0.973	-0.318	1.013	1.170	603	
665.490	67.873	-109.434	2.209	-0.057	-3.078	0.137	1.706	-0.078	-0.182	-0.016	-0.202	0.033	-0.044	1.278	0.294	-0.973	-0.318	1.014	1.170	606	
665.486	67.870	-109.146	2.209	-0.057	-3.078	0.137	1.704	-0.069	-0.195	-0.014	-0.203	0.034	-0.044	1.277	0.294	-0.974	-0.318	1.014	1.170	610	
665.484	67.869	-109.001	2.209	-0.057	-3.078	0.126	1.750	-0.062	-0.211	-0.012	-0.203	0.034	-0.044	1.277	0.294	-0.974	-0.318	1.014	1.170	612	
665.482	67.868	-108.856	2.209	-0.057	-3.078	0.099	1.791	-0.059	-0.209	-0.011	-0.202	0.035	-0.044	1.277	0.294	-0.974	-0.318	1.014	1.170	614	
665.484	67.866	-108.563	2.209	-0.057	-3.078	0.015	1.712	-0.088	-0.134	-0.018	-0.208	0.037	-0.044	1.276	0.294	-0.974	-0.318	1.014	1.170	618	
665.513	67.854	-107.663	2.209	-0.057	-3.078	-0.078	1.491	-0.164	-0.059	-0.035	-0.207	0.041	-0.044	1.275	0.294	-0.975	-0.317	1.015	1.170	629	
665.524	67.848	-107.283	2.209	-0.057	-3.078	-0.018	1.722	-0.174	-0.163	-0.031	-0.207	0.043	-0.044	1.274	0.294	-0.975	-0.317	1.015	1.170	635	
665.524	67.845	-106.907	2.209	-0.057	-3.078	0.030	1.853	-0.160	-0.191	-0.028	-0.211	0.044	-0.044	1.273	0.294	-0.976	-0.317	1.016	1.170	640	
665.523	67.844	-106.755	2.209	-0.057	-3.078	0.095	1.666	-0.109	-0.126	-0.025	-0.221	0.044	-0.044	1.273	0.294	-0.976	-0.317	1.016	1.170	642	
665.521	67.843	-106.372	2.209	-0.057	-3.078	0.095	1.399	-0.074	-0.002	-0.026	-0.229	0.045	-0.044	1.272	0.294	-0.976	-0.317	1.016	1.170	647	
665.524	67.843	-106.217	2.209	-0.057	-3.078	0.089	1.263	-0.057	0.061	-0.027	-0.232	0.046	-0.044	1.272	0.294	-0.976	-0.317	1.016	1.170	650	
665.533	67.845	-105.982	2.209	-0.057	-3.078	0.066	1.065	-0.040	0.128	-0.028	-0.235	0.047	-0.044	1.272	0.294	-0.977	-0.317	1.017	1.170	652	
665.540	67.844	-105.824	2.209	-0.057	-3.078	0.024	0.763	-0.041	0.200	-0.035	-0.234	0.048	-0.044	1.271	0.294	-0.977	-0.316	1.017	1.170	654	
665.554	67.845	-105.504	2.209	-0.057	-3.078	0.024	0.629	-0.040	0.229	-0.038	-0.233	0.049	-0.044	1.271	0.294	-0.977	-0.316	1.017	1.170	658	
665.564	67.846	-105.264	2.209	-0.057	-3.078	0.016	0.576	-0.048	0.244	-0.043	-0.231	0.049	-0.044	1.270	0.294	-0.977	-0.316	1.017	1.170	661	
665.572	67.847	-105.106	2.209	-0.057	-3.078	0.026	0.576	-0.055	0.252	-0.046	-0.232	0.050	-0.044	1.270	0.294	-0.977	-0.316	1.017	1.170	663	
665.579	67.848	-104.947	2.209	-0.057	-3.078	0.060	0.633	-0.058	0.229	-0.047	-0.234	0.050	-0.044	1.270	0.294	-0.977	-0.316	1.017	1.170	665	
665.586	67.852	-104.478	2.209	-0.057	-3.078	0.180	0.715	-0.006	0.191	-0.037	-0.241	0.051	-0.044	1.269	0.294	-0.978	-0.316	1.018	1.170	670	
665.588	67.854	-104.320	2.209	-0.057	-3.078	0.208	0.580	0.027	0.240	-0.034	-0.245	0.051	-0.044	1.268	0.294	-0.978	-0.316	1.018	1.170	673	
665.590	67.857	-104.085	2.209	-0.057	-3.078	0.236	0.548	0.054	0.237	-0.031	-0.247	0.052	-0.044	1.268	0.294	-0.978	-0.316	1.018	1.170	676	
665.590	67.859	-103.928	2.209	-0.057	-3.078	0.245	0.442	0.075	0.266	-0.029	-0.249	0.052	-0.044	1.268	0.294	-0.978	-0.316	1.018	1.170	678	
665.601	67.860	-103.612	2.209	-0.057	-3.078	0.239	0.224	0.093	0.341	-0.031	-0.252	0.053	-0.044	1.267	0.294	-0.979	-0.316	1.019	1.170	682	
665.602	67.860	-103.534	2.209	-0.057	-3.078	0.263	0.188	0.100	0.330	-0.032	-0.248	0.054	-0.044	1.267	0.294	-0.979	-0.315	1.019	1.170	684	
665.608	67.862	-103.377	2.209	-0.057	-3.078	0.292	0.135	0.106	0.327	-0.033	-0.243	0.054	-0.044	1.267	0.294	-0.979	-0.315	1.019	1.170	686	
665.612	67.862	-103.220	2.209	-0.057	-3.078	0.344	0.130	0.115	0.297	-0.033	-0.238	0.055	-0.044	1.266	0.294	-0.979	-0.315	1.019	1.170	687	
665.617	67.863	-103.063	2.209	-0.057	-3.078	0.380	0.085	0.124	0.294	-0.033	-0.236	0.055	-0.044	1.266	0.294	-0.979	-0.315	1.019	1.170	689	
665.624	67.865	-102.751	2.209	-0.057	-3.078	0.465	0.104	0.145	0.289	-0.033	-0.238	0.056	-0.044	1.266	0.294	-0.979	-0.315	1.019	1.170	691	
665.628	67.866	-102.597	2.209	-0.057	-3.078	0.044	1.050	-0.054	0.075	-0.034	-0.238	0.066	-0.044	1.265	0.294	-0.980	-0.315	1.020	1.170	695	
665.534	67.866	-99.220	2.209	-0.057	-3.078	0.080	1.433	-0.082	-0.075	-0.027	-0.223	0.072	-0.045	1.259	0.294	-0.983	-0.314	1.023	1.170	742	
665.440	67.845	-96.414	2.209	-0.057	-3.078	0.099	1.332	-0.061	-0.043	-0.026	-0.224	0.072	-0.045	1.254	0.294	-0.985	-0.312	1.026	1.169	790	
665.439	67.845	-96.304	2.209	-0.057	-3.078	0.105	1.305	-0.052	-0.035	-0.027	-0.223	0.072	-0.045	1.254	0.294	-0.985	-0.312	1.026	1.169	792	
665.443	67.845	-96.195	2.209	-0.057	-3.078	0.112	1.277	-0.046	-0.032	-0.027	-0.221	0.072	-0.045	1.254	0.294	-0.985	-0.312	1.026	1.169	794	
665.447	67.847	-96.085	2.209	-0.057	-3.078	0.128	1.120	-0.034	0.001	-0.028	-0.216	0.073	-0.045	1.253	0.294	-0.985	-0.312	1.026	1.169	796	
665.453	67.849	-95.976	2.209	-0.057	-3.078	0.138	1.130	-0.037	-0.020	-0.032	-0.209	0.073	-0.045	1.253	0.294	-0.985	-0.312	1.026	1.169	798	
665.467	67.854	-95.763	2.209	-0.057	-3.078	0.142	1.071	-0.039	-0.000	-0.034	-0.209	0.073	-0.045	1.253	0.294	-0.985	-0.312	1.026	1.169	802	
665.475	67.855	-95.658	2.209	-0.057	-3.078	0.133	1.082	-0.044	0.007	-0.035	-0.210	0.073	-0.045	1.253	0.294	-0.986	-0.312	1.026	1.169	804	
665.482	67.858	-95.554	2.209	-0.057	-3.078	0.121	1.070	-0.049	0.022	-0.034	-0.211	0.073	-0.045	1.252	0.294	-0.986	-0.312	1.026	1.169	806	
665.490	67.860	-95.449	2.209	-0.057	-3.078	0.116	0.951	-0.045	0.077	-0.035	-0.215	0.073	-0.045	1.252	0.294	-0.986	-0.312	1.027	1.169	808	
665.497	67.861	-95.344	2.209	-0.057	-3.078	0.099	0.853	-0.037	0.161	-0.038	-0.227	0.074	-0.045	1.252	0.294	-0.986	-0.312	1.027	1.169	810	
665.511	67.863	-95.138	2.209	-0.057	-3.078	0.112	0.859	-0.032	0.165	-0.036	-0.232	0.074	-0.045	1.252	0.294	-0.986	-0.312	1.027	1.169	814	
665.515	67.864	-95.036	2.209	-0.057	-3.078	0.135	0.790	-0.021	0.176	-0.035	-0.233	0.074	-0.045	1.251	0.294	-0.986	-0.312	1.027	1.169	816	
665.518	67.865	-94.934	2.209	-0.057	-3.078	0.160	0.729	-0.009	0.184	-0.035	-0.232	0.074	-0.045	1.251	0.294	-0.986	-0.312	1.027	1.169	818	
665.521	67.866	-94.833	2.209	-0.057	-3.078	0.167	0.693	-0.004	0.195	-0.036	-0.231	0.074	-0.045	1.251	0.294	-0.986	-0.312	1.027	1.169	820	
665.524	67.867	-94.636	2.209	-0.057	-3.078	0.230	0.752	0.008	0.121	-0.033	-0.224	0.074	-0.045	1.251	0.294	-0.986	-0.312	1.027	1.169	822	
665.525	67.869	-94.491	2.209	-0.057	-3.078	0.232	0.717	0.010	0.128	-0.034	-0.221	0.075	-0.045	1.251	0.294	-0.986	-0.311	1.027	1.169	827	
665.526	67.871	-94.397	2.209	-0.057	-3.078	0.252	0.771	0.012	0.098	-0.034	-0.219	0.075	-0.045	1.250	0.294	-0.986	-0.311	1.028	1.169	829	
665.528	67.873	-94.303	2.209	-0.057	-3.078	0.260	0.755	0.017	0.098	-0.033	-0.218	0.075	-0.045	1.250	0.294	-0.986	-0.311	1.028	1.169	831	
665.529	67.874	-94.256	2.209	-0.057	-3.078	0.268	0.669	0.028	0.123	-0.032	-0.219	0.075	-0.045	1.250	0.294	-0.987	-0.311	1.028	1.169	833	
665.531	67.875	-94.164	2.209	-0.057	-3.078	0.265	0.742	0.040	0.110	-0.026	-0.221	0.076	-0.045	1.250	0.294	-0.987	-0.311	1.028	1.169	834	
665.540	67.882	-93.941	2.209	-0.057	-3.078	0.263	0.610	0.054	0.153	-0.027	-0.221	0.076	-0.045	1.250	0.294	-0.987	-0.311	1.028	1.169	838	
665.477	67.900	-92.155	2.209	-0.057	-3.078	0.114	0.514	0.013	0.260	-0.037	-0.223	0.077	-0.045	1.246	0.294	-0.988	-0.310	1.030	1.169	888	
665.479	67.899	-92.125	2.209	-0.057	-3.078	0.089	0.459	0.009	0.291	-0.038	-0.225	0.077	-0.045	1.246	0.294	-0.988	-0.310	1.030	1.169	890	
665.480	67.899	-92.068	2.209	-0.057	-3.078	0.084	0.567	0.002	0.235	-0.036	-0.223	0.077	-0.045	1.246	0.294	-0.988	-0.310	1.030	1.169	892	
665.481	67.899	-92.013	2.209	-0.057	-3.078	0.083	0.695	-0.007	0.168	-0.033	-0.219	0.077	-0.045	1.246	0.294	-0.988	-0.310	1.030	1.169	893	
665.487	67.900	-91.904	2.209	-0.057	-3.078	0.085	0.699	-0.008	0.148	-0.030	-0.213	0.077	-0.045	1.246	0.294	-0.988	-0.310	1.030	1.169	895	
665.493	67.900	-91.849	2.209	-0.057	-3.078	0.087	0.627	-0.004	0.175	-0.031	-0.211	0.077	-0.045	1.246	0.294	-0.989	-0.310	1.030	1.169	899	
665.499	67.900	-91.795	2.209	-0.057	-3.078	0.088	0.562	0.002	0.202	-0.031	-0.213	0.077	-0.045	1.246	0.294	-0.989	-0.310	1.030	1.169	901	
665.503	67.900	-91.745	2.209	-0.057	-3.078	0.103	0.650	0.003	0.155	-0.028	-0.212	0.077	-0.045	1.246	0.294	-0.989	-0.310	1.030	1.169	903	
665.505	67.900	-91.720	2.209	-0.057	-3.078	0.129	0.819	-0.000	0.073	-0.024	-0.208	0.077	-0.045	1.245	0.294	-0.989	-0.310	1.030	1.169	905	
665.508	67.901	-91.671	2.209	-0.057	-3.078	0.148	0.935	-0.007	0.032	-0.023	-0.203	0.077	-0.045	1.245	0.294	-0.989	-0.310	1.030	1.169	906	
665.518	67.901	-91.577	2.209	-0.057	-3.078	0.162	0.944	-0.007	0.025	-0.023	-0.202	0.077	-0.045	1.245	0.294	-0.989	-0.310	1.030	1.169	910	
665.522	67.901	-91.531	2.209	-0.057	-3.078	0.174	0.941	-0.005	0.026	-0.023	-0.201	0.077	-0.045	1.245	0.294	-0.989	-0.310	1.030	1.169	912	
665.529	67.901	-91.483	2.209	-0.057	-3.078	0.172	0.860	-0.002	0.063	-0.023	-0.202	0.077	-0.045	1.245	0.294	-0.989	-0.310	1.030	1.169	914	
665.532	67.901	-91.461	2.209	-0.057	-3.078	0.183	0.834	0.004	0.085	-0.024	-0.205	0.077	-0.045	1.245	0.294	-0.989	-0.310	1.030	1.169	916	
665.537	67.901	-91.416	2.209	-0.057	-3.078	0.210	0.891	0.008	0.067	-0.023	-0.206	0.077	-0.045	1.245	0.294	-0.989	-0.310	1.030	1.169	917	
665.544	67.903	-91.330	2.209	-0.057	-3.078	0.242	0.994	0.011	0.028	-0.021	-0.204	0.076	-0.045	1.245	0.294	-0.989	-0.310	1.030	1.169	919	
665.547	67.904	-91.250	2.209	-0.057	-3.078	0.280	1.154	0.012	0.003	-0.020	-0.204	0.076	-0.045	1.245	0.294	-0.989	-0.310	1.030	1.169	925	
665.548	67.905	-91.212	2.209	-0.057	-3.078	0.284	1.189	0.011	-0.004	-0.019	-0.205	0.076	-0.045	1.245	0.294	-0.989	-0.310	1.031	1.169	927	
665.549	67.905	-91.174	2.209	-0.057	-3.078	0.299	1.148	0.018	0.021	-0.020	-0.207	0.076	-0.045	1.245	0.294	-0.989	-0.310	1.031	1.169	929	
665.549	67.905	-91.136	2.209	-0.057	-3.078	0.311	1.127	0.029	0.046	-0.018	-0.211	0.076	-0.045	1.244	0.294	-0.989	-0.310	1.031	1.169	931	
665.547	67.906	-91.065	2.209	-0.057	-3.078	0.313	1.166	0.031	0.031	-0.017	-0.210	0.076	-0.045	1.244	0.294	-0.989	-0.310	1.031	1.169	935	
665.541	67.906	-91.016	2.209	-0.057	-3.078	0.311	1.218	0.033	0.005	-0.016	-0.207	0.075	-0.045	1.244	0.294	-0.989	-0.310	1.031	1.169	938	
665.536	67.906	-90.986	2.209	-0.057	-3.078	0.298	1.329	0.025	-0.032	-0.015	-0.206	0.075	-0.045	1.244	0.294	-0.989	-0.310	1.031	1.169	940	
665.433	67.870	-90.441	2.209	-0.057	-3.078	0.139	0.843	0.017	0.140	-0.018	-0.193	0.075	-0.045	1.243	0.294	-0.990	-0.310	1.032	1.169	987	
665.438	67.872	-90.421	2.209	-0.057	-3.078	0.142	1.227	-0.006	0.011	-0.014	-0.188	0.075	-0.045	1.243	0.294	-0.990	-0.310	1.032	1.169	990	
665.444	67.876	-90.400	2.209	-0.057	-3.078	0.141	1.381	-0.024	-0.045	-0.013	-0.182	0.075	-0.045	1.243	0.294	-0.990	-0.310	1.032	1.169	995	
665.445	67.877	-90.393	2.209	-0.057	-3.078	0.128	1.423	-0.036	-0.057	-0.013	-0.179	0.075	-0.045	1.243	0.294	-0.990	-0.310	1.032	1.169	997	
665.446	67.879	-90.388	2.209	-0.057	-3.078	0.131	1.445	-0.043	-0.065	-0.013	-0.176	0.074	-0.045	1.243	0.294	-0.990	-0.310	1.032	1.169	999	
665.447	67.880	-90.383	2.209	-0.057	-3.078	0.117	1.437	-0.050	-0.060	-0.013	-0.174	0.074	-0.045	1.243	0.294	-0.990	-0.310	1.032	1.169	1001	
665.449	67.882	-90.374	2.209	-0.057	-3.078	0.102	1.351	-0.053	-0.031	-0.013	-0.170	0.074	-0.045	1.243	0.294	-0.990	-0.310	1.032	1.169	1003	
665.450	67.882	-90.369	2.209	-0.057	-3.078	0.093	1.274	-0.050	-0.004	-0.013	-0.168	0.074	-0.045	1.243	0.294	-0.990	-0.310	1.032	1.169	1007	
665.451	67.882	-90.365	2.209	-0.057	-3.078	0.085	1.211	-0.045	0.019	-0.012	-0.167	0.074	-0.045	1.243	0.294	-0.990	-0.310	1.032	1.169	1009	
665.452	67.883	-90.361	2.209	-0.057	-3.078	0.079	1.148	-0.038	0.040	-0.011	-0.165	0.074	-0.045	1.243	0.294	-0.990	-0.310	1.032	1.169	1011	
665.453	67.883	-90.357	2.209	-0.057	-3.078	0.073	1.094	-0.032	0.055	-0.010	-0.164	0.074	-0.045	1.243	0.294	-0.990	-0.310	1.032	1.169	1013	
665.456	67.883	-90.348	2.209	-0.057	-3.078	0.066	0.967	-0.018	0.086	-0.008	-0.161	0.073	-0.045	1.243	0.294	-0.990	-0.310	1.032	1.169	1018	
665.457	67.883	-90.344	2.209	-0.057	-3.078	0.059	0.876	-0.012	0.110	-0.007	-0.159	0.073	-0.045	1.243	0.294	-0.990	-0.310	1.032	1.169	1020	
665.458	67.883	-90.339	2.209	-0.057	-3.078	0.065	0.852	-0.009	0.110	-0.007	-0.156	0.073	-0.045	1.243	0.294	-0.990	-0.310	1.032	1.169	1022	
665.458	67.883	-90.335	2.209	-0.057	-3.078	0.077	0.875	-0.013	0.097	-0.006	-0.152	0.073	-0.045	1.243	0.294	-0.990	-0.310	1.032	1.169	1027	
665.458	67.884	-90.335	2.209	-0.057	-3.078	0.077	0.875	-0.014	0.101	-0.006	-0.151	0.073	-0.045	1.243	0.294	-0.990	-0.310	1.032	1.169	1031	
665.457	67.884	-90.335	2.209	-0.057	-3.078	0.085	0.877	-0.012	0.104	-0.005	-0.150	0.073	-0.045	1.243	0.294	-0.990	-0.310	1.032	1.169	1033	
665.456	67.884	-90.335	2.209	-0.057	-3.078	0.090	0.877	-0.009	0.108	-0.004	-0.149	0.072	-0.045	1.243	0.294	-0.990	-0.310	1.032	1.169	1035	
665.455	67.884	-90.336	2.209	-0.057	-3.078	0.102	0.869	-0.003	0.114	-0.003	-0.148	0.072	-0.045	1.243	0.294	-0.990	-0.310	1.032	1.169	1037	
665.452	67.885	-90.338	2.209	-0.057	-3.078	0.135	0.841	0.022	0.129	0.001	-0.146	0.072	-0.045	1.243	0.294	-0.990	-0.310	1.032	1.169	1042	
665.456	67.889	-90.336	2.209	-0.057	-3.078	0.002	1.324	-0.049	-0.055	0.018	-0.123	0.071	-0.045	1.243	0.294	-0.990	-0.310	1.032	1.169	1092	
665.457	67.889	-90.336	2.209	-0.057	-3.078	0.001	1.291	-0.043	-0.040	0.018	-0.122	0.070	-0.045	1.243	0.294	-0.990	-0.310	1.032	1.169	1096	
665.458	67.889	-90.335	2.209	-0.057	-3.078	0.001	1.227	-0.031	-0.013	0.019	-0.121	0.070	-0.045	1.243	0.294	-0.990	-0.310	1.032	1.169	1098	
665.459	67.889	-90.335	2.209	-0.057	-3.078	-0.000	1.187	-0.028	0.001	0.019	-0.121	0.070	-0.045	1.243	0.294	-0.990	-0.310	1.032	1.169	1102	
665.460	67.889	-90.334	2.209	-0.057	-3.078	0.002	1.147	-0.025	0.015	0.019	-0.121	0.070	-0.045	1.243	0.294	-0.990	-0.310	1.032	1.169	1104	
665.460	67.889	-90.334	2.209	-0.057	-3.078	0.001	1.099	-0.022	0.033	0.017	-0.121	0.070	-0.045	1.243	0.294	-0.990	-0.310	1.032	1.169	1106	
665.461	67.889	-90.333	2.209	-0.057	-3.078	-0.004	1.053	-0.022	0.051	0.016	-0.121	0.070	-0.045	1.243	0.294	-0.990	-0.310	1.032	1.169	1108	
665.461	67.889	-90.333	2.209	-0.057	-3.078	0.006	0.968	-0.018	0.083	0.014	-0.121	0.070	-0.045	1.243	0.294	-0.990	-0.310	1.032	1.169	1110	
665.462	67.889	-90.333	2.209	-0.057	-3.078	0.016	0.710	0.013	0.136	0.015	-0.119	0.069	-0.045	1.243	0.294	-0.990	-0.310	1.032	1.169	1126	
665.462	67.890	-90.333	2.209	-0.057	-3.078	0.028	0.701	0.019	0.130	0.016	-0.119	0.069	-0.045	1.243	0.294	-0.990	-0.310	1.032	1.169	1133	
665.462	67.890	-90.333	2.209	-0.057	-3.078	0.036	0.697	0.024	0.130	0.016	-0.119	0.069	-0.045	1.243	0.294	-0.990	-0.310	1.032	1.169	1135	
665.461	67.890	-90.333	2.209	-0.057	-3.078	0.040	0.706	0.025	0.129	0.016	-0.119	0.069	-0.045	1.243	0.294	-0.990	-0.310	1.032	1.169	1140	
665.461	67.890	-90.333	2.209	-0.057	-3.078	0.047	0.724	0.027	0.128	0.016	-0.119	0.069	-0.045	1.243	0.294	-0.990	-0.310	1.032	1.169	1142	
665.461	67.890	-90.333	2.209	-0.057	-3.078	0.043	0.749	0.025	0.127	0.016	-0.119	0.069	-0.045	1.243	0.294	-0.990	-0.310	1.032	1.169	1144	
665.461	67.890	-90.334	2.209	-0.057	-3.078	0.049	0.823	0.024	0.117	0.017	-0.120	0.069	-0.045	1.243	0.294	-0.990	-0.310	1.032	1.169	1147	
665.460	67.890	-90.334	2.209	-0.057	-3.078	0.052	0.860	0.023	0.108	0.017	-0.120	0.069	-0.045	1.243	0.294	-0.990	-0.310	1.032	1.169	1152	
665.460	67.890	-90.334	2.209	-0.057	-3.078	0.053	0.913	0.021	0.093	0.018	-0.120	0.068	-0.045	1.243	0.294	-0.990	-0.310	1.032	1.169	1154	
665.460	67.890	-90.334	2.209	-0.057	-3.078	0.059	0.948	0.019	0.081	0.019	-0.120	0.068	-0.045	1.243	0.294	-0.990	-0.310	1.032	1.169	1156	
665.459	67.890	-90.335	2.209	-0.057	-3.078	0.054	1.043	0.008	0.044	0.019	-0.120	0.068	-0.045	1.243	0.294	-0.990	-0.310	1.032	1.169	1159	
665.458	67.890	-90.335	2.209	-0.057	-3.078	0.045	1.093	0.000	0.023	0.019	-0.119	0.068	-0.045	1.243	0.294	-0.990	-0.310	1.032	1.169	1164	
665.458	67.890	-90.335	2.209	-0.057	-3.078	0.043	1.123	-0.004	0.009	0.020	-0.119	0.068	-0.045	1.243	0.294	-0.990	-0.310	1.032	1.169	1166	
665.458	67.890	-90.335	2.209	-0.057	-3.078	0.040	1.149	-0.007	-0.002	0.021	-0.119	0.068	-0.045	1.243	0.294	-0.990	-0.310	1.032	1.169	1168	
665.458	67.890	-90.335	2.209	-0.057	-3.078	0.029	1.198	-0.013	-0.026	0.022	-0.118	0.068	-0.045	1.243	0.294	-0.990	-0.310	1.032	1.169	1171	
665.459	67.891	-90.335	2.209	-0.057	-3.078	0.023	1.224	-0.017	-0.037	0.023	-0.118	0.068	-0.045	1.243	0.294	-0.990	-0.310	1.032	1.169	1174	
665.459	67.890	-90.335	2.209	-0.057	-3.078	0.016	1.224	-0.020	-0.038	0.023	-0.118	0.068	-0.045	1.243	0.294	-0.990	-0.310	1.032	1.169	1177	
665.459	67.890	-90.334	2.209	-0.057	-3.078	0.015	1.230	-0.022	-0.042	0.023	-0.117	0.068	-0.045	1.243	0.294	-0.990	-0.310	1.032	1.169	1179	
665.459	67.890	-90.334	2.209	-0.057	-3.078	0.010	1.235	-0.024	-0.043	0.023	-0.117	0.068	-0.045	1.243	0.294	-0.990	-0.310	1.032	1.169	1180	
665.459	67.890	-90.334	2.209	-0.057	-3.078	0.003	1.234	-0.028	-0.043	0.023	-0.117	0.068	-0.045	1.243	0.294	-0.990	-0.310	1.032	1.169	1182	
665.460	67.890	-90.334	2.209	-0.057	-3.078	-0.005	1.217	-0.036	-0.036	0.022	-0.116	0.068	-0.045	1.243	0.294	-0.990	-0.310	1.032	1.169	1186	
665.460	67.890	-90.333	2.209	-0.057	-3.078	-0.002	1.196	-0.037	-0.026	0.022	-0.116	0.068	-0.045	1.243	0.294	-0.990	-0.310	1.032	1.169	1188	
665.461	67.890	-90.333	2.209	-0.057	-3.078	-0.004	1.176	-0.039	-0.017	0.021	-0.116	0.068	-0.045	1.243	0.294	-0.990	-0.310	1.032	1.169	1190	
665.461	67.890	-90.333	2.209	-0.057	-3.078	-0.010	1.149	-0.041	-0.004	0.021	-0.116	0.067	-0.045	1.243	0.294	-0.990	-0.310	1.032	1.169	1192	
665.461	67.890	-90.333	2.209	-0.057	-3.078	-0.004	1.101	-0.038	0.017	0.021	-0.116	0.067	-0.045	1.243	0.294	-0.990	-0.310	1.032	1.169	1194	
665.461	67.890	-90.333	2.209	-0.057	-3.078	-0.000	1.044	-0.031	0.040	0.022	-0.116	0.067	-0.045	1.243	0.294	-0.990	-0.310	1.032	1.169	1198	
665.461	67.890	-90.333	2.209	-0.057	-3.078	0.007	1.007	-0.024	0.055	0.023	-0.116	0.067	-0.045	1.243	0.294	-0.990	-0.310	1.032	1.169	1201	
665.461	67.890	-90.333	2.209	-0.057	-3.078	0.002	0.971	-0.019	0.070	0.023	-0.116	0.067	-0.045	1.243	0.294	-0.990	-0.310	1.032	1.169	1203	
665.461	67.889	-90.333	2.209	-0.057	-3.078	0.006	0.939	-0.013	0.081	0.024	-0.116	0.066	-0.045	1.243	0.294	-0.990	-0.310	1.032	1.169	1205	
665.461	67.889	-90.333	2.209	-0.057	-3.078	0.020	0.869	0.002	0.103	0.026	-0.116	0.066	-0.045	1.243	0.294	-0.990	-0.310	1.032	1.169	1207	
665.461	67.889	-90.333	2.209	-0.057	-3.078	0.018	0.842	0.006	0.114	0.026	-0.116	0.065	-0.045	1.243	0.294	-0.990	-0.310	1.032	1.169	1210	
665.460	67.889	-90.333	2.209	-0.057	-3.078	0.023	0.812	0.011	0.124	0.027	-0.116	0.065	-0.045	1.243	0.294	-0.990	-0.310	1.032	1.169	1212	
665.460	67.889	-90.333	2.209	-0.057	-3.078	0.027	0.806	0.013	0.125	0.027	-0.116	0.064	-0.045	1.243	0.294	-0.990	-0.310	1.032	1.169	1214	
665.460	67.889	-90.333	2.209	-0.057	-3.078	0.029	0.790	0.016	0.129	0.028	-0.115	0.064	-0.045	1.243	0.294	-0.990	-0.310	1.032	1.169	1216	
665.459	67.888	-90.334	2.209	-0.057	-3.078	0.036	0.776	0.020	0.134	0.028	-0.115	0.063	-0.045	1.243	0.294	-0.990	-0.310	1.032	1.169	1218	
665.456	67.887	-90.335	2.209	-0.057	-3.078	0.033	0.760	0.020	0.138	0.031	-0.113	0.057	-0.045	1.243	0.294	-0.990	-0.310	1.032	1.169	1222	
665.455	67.886	-90.336	2.209	-0.057	-3.078	0.031	0.767	0.019	0.136	0.031	-0.113	0.057	-0.045	1.243	0.294	-0.990	-0.310	1.032	1.169	1226	
665.454	67.885	-90.337	2.209	-0.057	-3.078	0.019	0.770	0.015	0.137	0.032	-0.112	0.055	-0.045	1.243	0.294	-0.990	-0.310	1.032	1.169	1228	
665.452	67.884	-90.338	2.209	-0.057	-3.078	-0.012	0.784	0.004	0.133	0.032	-0.111	0.053	-0.045	1.243	0.294	-0.990	-0.310	1.032	1.169	1230	
665.449	67.879	-90.340	2.209	-0.057	-3.078	-0.086	0.825	-0.028	0.125	0.032	-0.108	0.050	-0.045	1.243	0.294	-0.990	-0.310	1.032	1.169	1234	
665.448	67.876	-90.341	2.209	-0.057	-3.078	-0.097	0.846	-0.041	0.121	0.032	-0.107	0.049	-0.045	1.243	0.294	-0.990	-0.310	1.032	1.169	1236	
665.448	67.874	-90.342	2.209	-0.057	-3.078	-0.108	0.870	-0.052	0.114	0.034	-0.103	0.048	-0.045	1.243	0.294	-0.990	-0.310	1.032	1.169	1238	
665.447	67.870	-90.344	2.209	-0.057	-3.078	-0.121	0.899	-0.064	0.103	0.035	-0.099	0.046	-0.045	1.243	0.294	-0.990	-0.310	1.032	1.169	1239	
665.446	67.866	-90.346	2.209	-0.057	-3.078	-0.131	0.928	-0.074	0.091	0.036	-0.094	0.045	-0.045	1.243	0.294	-0.990	-0.310	1.032	1.169	1241	
665.442	67.857	-90.349	2.209	-0.057	-3.078	-0.111	0.946	-0.078	0.072	0.040	-0.084	0.042	-0.045	1.243	0.294	-0.990	-0.310	1.032	1.169	1243	
665.437	67.852	-90.351	2.209	-0.057	-3.078	-0.079	0.987	-0.072	0.045	0.044	-0.079	0.040	-0.045	1.243	0.294	-0.990	-0.310	1.032	1.169	1247	
665.430	67.847	-90.353	2.208	-0.057	-3.078	-0.062	0.996	-0.068	0.040	0.046	-0.076	0.040	-0.045	1.243	0.294	-0.990	-0.310	1.032	1.169	1249	
665.427	67.845	-90.354	2.208	-0.057	-3.078	-0.034	1.007	-0.058	0.042	0.048	-0.074	0.038	-0.045	1.243	0.294	-0.990	-0.310	1.032	1.169	1251	
665.419	67.839	-90.356	2.208	-0.057	-3.078	-0.028	1.006	-0.055	0.047	0.049	-0.073	0.038	-0.045	1.243	0.294	-0.990	-0.310	1.032	1.169	1252	
665.411	67.833	-90.358	2.208	-0.057	-3.078	0.004	0.989	-0.044	0.065	0.051	-0.072	0.036	-0.045	1.243	0.294	-0.990	-0.310	1.032	1.169	1254	
665.393	67.821	-90.361	2.208	-0.057	-3.078	0.067	0.981	-0.022	0.090	0.055	-0.070	0.034	-0.045	1.243	0.294	-0.990	-0.310	1.032	1.169	1258	
665.384	67.814	-90.362	2.208	-0.057	-3.078	0.104	0.976	-0.010	0.103	0.056	-0.068	0.032	-0.045	1.243	0.294	-0.990	-0.310	1.032	1.169	1260	
665.377	67.808	-90.364	2.208	-0.057	-3.078	0.133	0.965	-0.001	0.115	0.058	-0.066	0.031	-0.045	1.243	0.294	-0.990	-0.310	1.031	1.169	1262	
665.371	67.800	-90.364	2.208	-0.057	-3.078	0.152	0.910	0.007	0.142	0.058	-0.063	0.030	-0.046	1.243	0.294	-0.990	-0.310	1.031	1.169	1264	
665.364	67.792	-90.366	2.208	-0.057	-3.078	0.180	0.898	0.014	0.140	0.061	-0.058	0.028	-0.046	1.243	0.294	-0.990	-0.310	1.031	1.169	1266	
665.355	67.774	-90.369	2.208	-0.057	-3.078	0.205	0.920	0.015	0.124	0.066	-0.047	0.025	-0.046	1.243	0.294	-0.990	-0.310	1.031	1.169	1270	
665.352	67.765	-90.371	2.208	-0.057	-3.078	0.215	0.916	0.015	0.124	0.067	-0.043	0.023	-0.046	1.243	0.294	-0.990	-0.310	1.031	1.170	1272	
665.350	67.754	-90.373	2.208	-0.057	-3.078	0.229	0.922	0.017	0.112	0.070	-0.039	0.022	-0.046	1.243	0.294	-0.990	-0.310	1.031	1.170	1274	
665.348	67.749	-90.373	2.208	-0.057	-3.078	0.234	0.918	0.018	0.109	0.074	-0.034	0.020	-0.046	1.243	0.294	-0.990	-0.310	1.031	1.170	1276	
665.344	67.737	-90.375	2.208	-0.057	-3.078	0.256	0.958	0.023	0.082	0.079	-0.029	0.017	-0.046	1.243	0.294	-0.991	-0.310	1.031	1.170	1277	
665.337	67.706	-90.380	2.208	-0.057	-3.078	0.280	1.033	0.031	0.049	0.088	-0.019	0.013	-0.046	1.243	0.294	-0.991	-0.310	1.031	1.170	1282	
665.333	67.692	-90.382	2.208	-0.057	-3.078	0.247	1.039	0.027	0.038	0.092	-0.012	0.009	-0.046	1.243	0.294	-0.991	-0.310	1.031	1.170	1284	
665.329	67.678	-90.383	2.207	-0.057	-3.078	0.221	1.033	0.020	0.047	0.094	-0.008	0.006	-0.046	1.243	0.294	-0.991	-0.310	1.031	1.170	1286	
665.325	67.664	-90.385	2.207	-0.057	-3.078	0.242	1.106	0.018	0.016	0.098	-0.003	0.003	-0.046	1.243	0.294	-0.991	-0.310	1.031	1.170	1288	
665.318	67.650	-90.388	2.207	-0.057	-3.078	0.333	1.122	0.040	-0.012	0.106	0.010	-0.003	-0.046	1.242	0.294	-0.991	-0.310	1.031	1.170	1290	
665.304	67.620	-90.391	2.207	-0.056	-3.078	0.309	1.155	0.031	-0.015	0.107	0.015	-0.006	-0.046	1.242	0.294	-0.991	-0.310	1.030	1.171	1294	
665.290	67.595	-90.394	2.207	-0.056	-3.078	0.276	1.177	0.015	-0.016	0.108	0.020	-0.010	-0.046	1.242	0.294	-0.991	-0.310	1.030	1.171	1297	
665.285	67.586	-90.394	2.207	-0.056	-3.078	0.274	1.136	0.007	0.015	0.108	0.020	-0.013	-0.046	1.242	0.294	-0.991	-0.310	1.030	1.171	1299	
665.274	67.568	-90.396	2.207	-0.056	-3.078	0.273	1.204	-0.003	0.008	0.109	0.020	-0.017	-0.046	1.242	0.294	-0.992	-0.310	1.030	1.171	1300	
665.263	67.549	-90.397	2.207	-0.056	-3.078	0.242	1.111	-0.023	0.087	0.108	0.021	-0.024	-0.046	1.242	0.294	-0.992	-0.310	1.030	1.171	1302	
665.226	67.497	-90.394	2.206	-0.056	-3.078	0.298	1.065	-0.007	0.113	0.111	0.022	-0.028	-0.046	1.242	0.294	-0.992	-0.310	1.030	1.171	1307	
665.207	67.473	-90.393	2.206	-0.056	-3.078	0.257	1.012	-0.007	0.141	0.113	0.024	-0.031	-0.046	1.242	0.294	-0.992	-0.310	1.030	1.172	1309	
665.189	67.448	-90.391	2.206	-0.056	-3.078	0.168	1.065	-0.032	0.131	0.115	0.028	-0.035	-0.046	1.242	0.294	-0.992	-0.310	1.030	1.172	1311	
665.168	67.421	-90.387	2.206	-0.056	-3.078	0.154	0.925	-0.031	0.189	0.118	0.031	-0.040	-0.046	1.242	0.294	-0.992	-0.310	1.030	1.172	1313	
665.122	67.363	-90.378	2.205	-0.056	-3.078	0.070	0.835	-0.047	0.217	0.119	0.037	-0.044	-0.046	1.242	0.294	-0.993	-0.310	1.030	1.172	1315	
665.108	67.349	-90.377	2.205	-0.056	-3.078	0.120	0.991	-0.042	0.139	0.127	0.045	-0.047	-0.046	1.242	0.294	-0.993	-0.310	1.029	1.172	1319	
665.079	67.317	-90.376	2.205	-0.056	-3.078	0.113	1.134	-0.049	0.065	0.133	0.056	-0.050	-0.046	1.242	0.294	-0.993	-0.310	1.029	1.173	1321	
664.994	67.231	-90.373	2.205	-0.056	-3.078	0.127	1.228	-0.059	0.017	0.142	0.072	-0.057	-0.047	1.241	0.294	-0.993	-0.310	1.029	1.173	1322	
664.930	67.155	-90.365	2.204	-0.056	-3.078	0.162	0.964	-0.035	0.177	0.142	0.064	-0.061	-0.047	1.241	0.294	-0.994	-0.310	1.029	1.173	1327	
664.899	67.113	-90.360	2.204	-0.056	-3.078	0.122	0.909	-0.042	0.231	0.141	0.061	-0.062	-0.047	1.241	0.294	-0.994	-0.310	1.029	1.174	1331	
664.869	67.068	-90.355	2.204	-0.056	-3.078	0.043	0.949	-0.073	0.239	0.140	0.062	-0.064	-0.047	1.241	0.294	-0.994	-0.310	1.029	1.174	1333	
664.836	67.023	-90.352	2.204	-0.056	-3.078	0.101	1.065	-0.076	0.183	0.145	0.069	-0.066	-0.047	1.241	0.294	-0.995	-0.310	1.028	1.174	1335	
664.801	66.977	-90.350	2.203	-0.056	-3.078	0.146	1.115	-0.074	0.151	0.149	0.078	-0.068	-0.047	1.241	0.294	-0.995	-0.310	1.028	1.174	1337	
664.731	66.883	-90.341	2.203	-0.056	-3.078	0.261	0.974	-0.051	0.165	0.155	0.086	-0.071	-0.047	1.241	0.294	-0.995	-0.310	1.028	1.174	1339	
664.670	66.812	-90.335	2.202	-0.056	-3.078	0.394	1.024	-0.013	0.104	0.162	0.092	-0.073	-0.047	1.240	0.294	-0.996	-0.310	1.028	1.175	1344	
664.631	66.763	-90.332	2.202	-0.056	-3.078	0.467	1.113	0.014	0.070	0.168	0.095	-0.074	-0.047	1.240	0.294	-0.996	-0.311	1.028	1.175	1346	
664.611	66.739	-90.330	2.202	-0.056	-3.078	0.499	1.100	0.030	0.118	0.170	0.093	-0.075	-0.048	1.240	0.294	-0.996	-0.311	1.028	1.176	1347	
664.576	66.689	-90.322	2.202	-0.056	-3.078	0.532	0.861	0.061	0.256	0.170	0.085	-0.076	-0.048	1.240	0.294	-0.996	-0.311	1.028	1.176	1349	
664.509	66.587	-90.306	2.201	-0.055	-3.078	0.516	0.768	0.078	0.295	0.173	0.081	-0.079	-0.048	1.240	0.294	-0.997	-0.311	1.027	1.176	1351	
664.450	66.510	-90.301	2.201	-0.055	-3.078	0.584	1.028	0.091	0.158	0.182	0.091	-0.080	-0.048	1.240	0.294	-0.997	-0.311	1.027	1.177	1356	
664.407	66.458	-90.301	2.200	-0.055	-3.078	0.579	1.214	0.091	0.031	0.192	0.106	-0.082	-0.048	1.239	0.294	-0.998	-0.311	1.027	1.177	1358	
664.365	66.406	-90.300	2.200	-0.055	-3.078	0.672	1.338	0.109	-0.074	0.205	0.118	-0.083	-0.048	1.239	0.294	-0.998	-0.311	1.026	1.177	1360	
664.331	66.352	-90.295	2.200	-0.055	-3.078	0.730	1.146	0.144	-0.008	0.209	0.124	-0.084	-0.048	1.239	0.294	-0.998	-0.311	1.026	1.178	1362	
664.261	66.242	-90.283	2.199	-0.055	-3.078	0.648	0.831	0.156	0.137	0.205	0.123	-0.086	-0.048	1.239	0.294	-0.999	-0.311	1.026	1.178	1366	
664.216	66.184	-90.280	2.199	-0.055	-3.078	0.626	0.968	0.147	0.042	0.212	0.128	-0.087	-0.049	1.239	0.294	-0.999	-0.311	1.026	1.179	1368	
664.165	66.125	-90.277	2.198	-0.055	-3.078	0.600	1.172	0.123	-0.074	0.216	0.139	-0.088	-0.049	1.238	0.294	-1.000	-0.311	1.025	1.179	1370	
664.141	66.093	-90.274	2.198	-0.055	-3.078	0.533	1.124	0.102	-0.047	0.216	0.142	-0.089	-0.049	1.238	0.294	-1.000	-0.311	1.025	1.179	1372	
664.093	66.029	-90.269	2.198	-0.055	-3.078	0.411	1.126	0.060	-0.018	0.214	0.137	-0.089	-0.049	1.238	0.294	-1.000	-0.311	1.025	1.180	1373	
663.997	65.895	-90.255	2.197	-0.055	-3.078	0.231	1.098	-0.002	0.023	0.209	0.134	-0.090	-0.049	1.238	0.294	-1.000	-0.311	1.025	1.180	1375	
663.971	65.860	-90.253	2.197	-0.055	-3.078	0.135	1.103	-0.044	0.020	0.206	0.145	-0.091	-0.049	1.238	0.294	-1.001	-0.311	1.024	1.181	1379	
663.917	65.790	-90.250	2.197	-0.055	-3.078	0.101	1.328	-0.079	-0.057	0.210	0.158	-0.092	-0.049	1.238	0.294	-1.002	-0.311	1.024	1.181	1380	
663.861	65.718	-90.249	2.196	-0.055	-3.078	0.107	1.579	-0.108	-0.119	0.214	0.160	-0.092	-0.050	1.237	0.294	-1.002	-0.311	1.024	1.182	1382	
663.810	65.647	-90.244	2.196	-0.055	-3.078	0.115	1.401	-0.104	-0.002	0.213	0.145	-0.093	-0.050	1.237	0.294	-1.002	-0.311	1.024	1.182	1384	
663.759	65.573	-90.235	2.195	-0.054	-3.078	0.082	1.262	-0.107	0.073	0.209	0.136	-0.093	-0.050	1.237	0.294	-1.003	-0.312	1.023	1.182	1386	
663.668	65.458	-90.226	2.195	-0.054	-3.078	0.204	1.322	-0.086	0.001	0.213	0.127	-0.096	-0.050	1.237	0.294	-1.003	-0.312	1.023	1.183	1390	
663.598	65.379	-90.223	2.194	-0.054	-3.078	0.287	1.567	-0.079	-0.136	0.223	0.140	-0.098	-0.050	1.236	0.294	-1.004	-0.312	1.023	1.183	1391	
663.500	65.259	-90.217	2.194	-0.054	-3.078	0.260	1.613	-0.083	-0.107	0.230	0.150	-0.100	-0.050	1.236	0.294	-1.004	-0.312	1.023	1.184	1393	
661.938	63.054	-89.960	2.182	-0.052	-3.079	0.180	0.722	-0.078	0.365	0.226	0.134	-0.111	-0.055	1.230	0.294	-1.016	-0.314	1.015	1.196	1440	
661.874	62.944	-89.940	2.181	-0.052	-3.079	0.189	0.562	-0.054	0.477	0.222	0.128	-0.111	-0.055	1.230	0.294	-1.017	-0.314	1.015	1.197	1443	
661.766	62.781	-89.912	2.180	-0.052	-3.079	0.279	0.588	-0.013	0.397	0.230	0.137	-0.112	-0.055	1.230	0.294	-1.018	-0.314	1.014	1.197	1445	
661.613	62.557	-89.874	2.179	-0.051	-3.079	0.378	0.444	0.074	0.318	0.245	0.161	-0.112	-0.055	1.229	0.294	-1.019	-0.314	1.013	1.199	1450	
661.533	62.444	-89.856	2.178	-0.051	-3.079	0.341	0.481	0.083	0.243	0.251	0.169	-0.111	-0.056	1.229	0.294	-1.020	-0.314	1.013	1.199	1452	
661.455	62.327	-89.838	2.178	-0.051	-3.079	0.194	0.488	0.062	0.202	0.257	0.170	-0.111	-0.056	1.229	0.294	-1.020	-0.314	1.013	1.200	1454	
661.416	62.267	-89.829	2.177	-0.051	-3.079	0.063	0.434	0.027	0.216	0.259	0.169	-0.111	-0.056	1.228	0.294	-1.021	-0.314	1.012	1.201	1455	
661.290	62.086	-89.800	2.176	-0.051	-3.079	0.096	0.432	0.026	0.199	0.258	0.180	-0.111	-0.056	1.228	0.294	-1.022	-0.314	1.012	1.201	1457	
661.137	61.843	-89.754	2.175	-0.051	-3.079	0.064	0.159	0.027	0.473	0.242	0.170	-0.110	-0.057	1.227	0.294	-1.023	-0.315	1.011	1.202	1462	
661.053	61.723	-89.735	2.174	-0.051	-3.079	0.157	0.199	0.054	0.442	0.245	0.156	-0.111	-0.057	1.227	0.294	-1.024	-0.315	1.011	1.203	1464	
661.009	61.662	-89.726	2.174	-0.050	-3.079	0.321	0.394	0.091	0.315	0.250	0.158	-0.112	-0.057	1.227	0.294	-1.024	-0.315	1.010	1.204	1466	
660.877	61.479	-89.697	2.173	-0.050	-3.079	0.405	0.418	0.123	0.353	0.248	0.162	-0.113	-0.058	1.226	0.294	-1.025	-0.315	1.010	1.204	1468	
660.790	61.353	-89.676	2.172	-0.050	-3.079	0.168	0.328	0.075	0.463	0.241	0.151	-0.114	-0.058	1.226	0.294	-1.026	-0.315	1.009	1.206	1470	
660.615	61.097	-89.636	2.171	-0.050	-3.080	-0.227	0.272	-0.063	0.390	0.234	0.150	-0.117	-0.058	1.225	0.294	-1.027	-0.315	1.008	1.207	1474	
660.519	60.967	-89.619	2.170	-0.050	-3.080	-0.294	0.391	-0.121	0.290	0.232	0.182	-0.118	-0.059	1.225	0.294	-1.028	-0.315	1.008	1.208	1476	
660.422	60.834	-89.600	2.169	-0.050	-3.080	-0.426	0.400	-0.182	0.312	0.225	0.207	-0.119	-0.059	1.224	0.294	-1.029	-0.315	1.007	1.208	1478	
660.329	60.701	-89.583	2.169	-0.050	-3.080	-0.487	0.391	-0.210	0.334	0.222	0.211	-0.119	-0.059	1.224	0.294	-1.029	-0.315	1.007	1.209	1480	
660.241	60.571	-89.568	2.168	-0.049	-3.080	-0.378	0.546	-0.226	0.249	0.229	0.195	-0.117	-0.059	1.224	0.294	-1.030	-0.316	1.007	1.209	1482	
660.044	60.311	-89.550	2.166	-0.049	-3.080	-0.124	1.178	-0.213	-0.058	0.233	0.201	-0.117	-0.060	1.223	0.294	-1.032	-0.316	1.006	1.211	1486	
659.942	60.178	-89.540	2.166	-0.049	-3.080	-0.120	1.161	-0.215	0.029	0.227	0.211	-0.116	-0.060	1.223	0.294	-1.032	-0.316	1.005	1.212	1488	
659.798	59.973	-89.522	2.165	-0.049	-3.080	-0.219	1.001	-0.228	0.159	0.224	0.204	-0.115	-0.060	1.222	0.294	-1.033	-0.316	1.005	1.213	1491	
659.749	59.904	-89.517	2.164	-0.049	-3.080	-0.239	0.907	-0.227	0.186	0.227	0.192	-0.114	-0.061	1.222	0.294	-1.034	-0.316	1.004	1.214	1493	
659.649	59.763	-89.504	2.163	-0.049	-3.080	-0.260	0.819	-0.196	0.275	0.227	0.174	-0.113	-0.061	1.222	0.294	-1.035	-0.316	1.004	1.214	1495	
659.400	59.406	-89.465	2.161	-0.048	-3.080	-0.158	0.645	-0.134	0.456	0.230	0.150	-0.113	-0.062	1.221	0.294	-1.036	-0.316	1.003	1.216	1499	
659.300	59.265	-89.446	2.161	-0.048	-3.080	0.044	0.370	-0.030	0.616	0.237	0.129	-0.111	-0.062	1.220	0.294	-1.037	-0.317	1.002	1.217	1501	
659.245	59.194	-89.438	2.160	-0.048	-3.080	0.264	0.434	0.066	0.502	0.249	0.133	-0.111	-0.062	1.220	0.294	-1.038	-0.317	1.002	1.218	1503	
659.127	59.049	-89.423	2.159	-0.048	-3.080	0.296	0.678	0.091	0.325	0.255	0.147	-0.112	-0.062	1.220	0.294	-1.039	-0.317	1.001	1.218	1504	
659.005	58.902	-89.414	2.159	-0.048	-3.080	0.026	1.295	-0.038	0.047	0.255	0.174	-0.112	-0.063	1.219	0.294	-1.040	-0.317	1.001	1.219	1506	
658.753	58.601	-89.397	2.157	-0.047	-3.080	-0.018	1.405	-0.095	-0.011	0.254	0.187	-0.112	-0.063	1.218	0.294	-1.041	-0.317	1.000	1.221	1510	
658.624	58.449	-89.387	2.156	-0.047	-3.080	0.028	1.371	-0.120	-0.003	0.252	0.198	-0.113	-0.064	1.218	0.294	-1.042	-0.317	0.999	1.222	1512	
658.502	58.298	-89.374	2.155	-0.047	-3.080	0.178	1.267	-0.100	0.071	0.248	0.189	-0.112	-0.064	1.218	0.294	-1.043	-0.318	0.999	1.223	1514	
658.374	58.150	-89.364	2.154	-0.047	-3.080	0.414	1.375	-0.049	-0.016	0.248	0.182	-0.113	-0.064	1.217	0.294	-1.044	-0.318	0.998	1.223	1516	
658.240	58.001	-89.357	2.154	-0.047	-3.080	0.471	1.667	-0.035	-0.119	0.249	0.181	-0.116	-0.064	1.217	0.294	-1.045	-0.318	0.998	1.224	1518	
657.843	57.539	-89.331	2.151	-0.046	-3.080	0.268	1.966	-0.081	-0.111	0.260	0.163	-0.118	-0.065	1.216	0.294	-1.046	-0.318	0.997	1.226	1522	
657.700	57.384	-89.324	2.150	-0.046	-3.080	0.282	2.036	-0.074	-0.196	0.266	0.168	-0.118	-0.065	1.216	0.294	-1.048	-0.318	0.996	1.227	1526	
657.628	57.304	-89.320	2.150	-0.046	-3.080	0.355	2.172	-0.047	-0.335	0.279	0.183	-0.119	-0.066	1.215	0.294	-1.049	-0.318	0.995	1.228	1528	
657.490	57.149	-89.311	2.149	-0.046	-3.080	0.464	2.224	-0.014	-0.366	0.285	0.187	-0.119	-0.066	1.215	0.294	-1.049	-0.318	0.995	1.229	1529	
657.226	56.838	-89.286	2.147	-0.046	-3.081	0.688	1.975	0.123	-0.330	0.306	0.195	-0.117	-0.066	1.214	0.294	-1.050	-0.319	0.994	1.229	1531	
657.098	56.676	-89.270	2.146	-0.046	-3.081	0.577	1.886	0.109	-0.388	0.309	0.217	-0.118	-0.067	1.214	0.294	-1.052	-0.319	0.993	1.231	1535	
657.035	56.595	-89.262	2.146	-0.046	-3.081	0.436	1.798	0.058	-0.356	0.299	0.230	-0.117	-0.067	1.213	0.294	-1.053	-0.319	0.993	1.232	1536	
656.917	56.435	-89.244	2.145	-0.045	-3.081	0.348	0.206	0.173	0.544	0.270	0.159	-0.109	-0.067	1.213	0.294	-1.053	-0.319	0.992	1.233	1538	
649.897	47.767	-88.229	2.096	-0.037	-3.084	-0.369	1.070	-0.386	0.170	0.250	0.207	-0.102	-0.084	1.190	0.294	-1.101	-0.326	0.962	1.281	1627	
649.721	47.554	-88.201	2.094	-0.037	-3.084	-0.226	1.012	-0.329	0.184	0.249	0.210	-0.102	-0.085	1.189	0.294	-1.104	-0.326	0.961	1.284	1631	
649.550	47.343	-88.168	2.093	-0.037	-3.084	-0.005	0.813	-0.224	0.272	0.253	0.202	-0.103	-0.085	1.188	0.294	-1.105	-0.327	0.960	1.285	1633	
649.378	47.138	-88.135	2.092	-0.037	-3.084	0.479	0.776	-0.033	0.216	0.272	0.193	-0.104	-0.086	1.188	0.294	-1.106	-0.327	0.959	1.286	1635	
585.989	-5.550	-79.487	1.757	-0.002	-3.119	0.068	0.521	-0.138	0.310	0.286	0.159	-0.099	-0.086	1.187	0.294	-1.107	-0.327	0.959	1.287	1637	
585.248	-5.994	-79.370	1.753	-0.002	-3.119	0.691	0.460	0.164	0.332	0.297	0.146	-0.097	-0.204	1.025	0.294	-1.446	-0.377	0.749	1.628	2137	
584.665	-6.346	-79.273	1.751	-0.001	-3.119	0.917	0.499	0.306	0.419	0.288	0.112	-0.096	-0.204	1.024	0.294	-1.449	-0.378	0.747	1.631	2141	
583.910	-6.782	-79.163	1.747	-0.001	-3.120	1.072	0.774	0.332	0.260	0.296	0.119	-0.100	-0.206	1.022	0.294	-1.452	-0.378	0.745	1.634	2147	
583.595	-6.951	-79.125	1.746	-0.001	-3.120	1.318	0.955	0.408	0.105	0.306	0.131	-0.102	-0.206	1.022	0.294	-1.454	-0.378	0.744	1.635	2149	
583.283	-7.120	-79.086	1.745	-0.001	-3.120	1.502	1.162	0.478	-0.064	0.322	0.144	-0.104	-0.206	1.021	0.294	-1.455	-0.379	0.744	1.637	2151	
582.973	-7.290	-79.049	1.743	-0.001	-3.120	1.486	1.364	0.490	-0.138	0.331	0.152	-0.106	-0.207	1.020	0.294	-1.456	-0.379	0.743	1.638	2153	
582.358	-7.629	-78.975	1.741	-0.001	-3.121	1.526	1.540	0.509	-0.125	0.335	0.151	-0.105	-0.208	1.019	0.294	-1.460	-0.379	0.741	1.642	2155	
582.048	-7.798	-78.941	1.739	-0.001	-3.121	1.519	1.774	0.508	-0.259	0.343	0.148	-0.105	-0.209	1.018	0.294	-1.461	-0.379	0.740	1.643	2159	
581.733	-7.966	-78.910	1.738	-0.001	-3.121	1.504	2.007	0.496	-0.409	0.349	0.159	-0.106	-0.209	1.018	0.294	-1.462	-0.380	0.739	1.644	2161	
581.416	-8.140	-78.877	1.737	-0.001	-3.121	1.418	2.074	0.470	-0.435	0.348	0.169	-0.105	-0.209	1.017	0.294	-1.463	-0.380	0.738	1.645	2163	
581.260	-8.227	-78.859	1.736	-0.001	-3.121	1.246	2.010	0.410	-0.340	0.344	0.180	-0.105	-0.210	1.017	0.294	-1.464	-0.380	0.738	1.646	2165	
580.958	-8.402	-78.821	1.735	-0.001	-3.121	1.132	1.486	0.382	0.081	0.327	0.124	-0.103	-0.210	1.016	0.294	-1.466	-0.380	0.737	1.648	2167	
580.379	-8.752	-78.730	1.732	-0.001	-3.122	1.052	1.151	0.387	0.315	0.313	0.104	-0.103	-0.211	1.015	0.294	-1.468	-0.380	0.736	1.650	2170	
580.085	-8.930	-78.685	1.731	-0.001	-3.122	0.932	1.166	0.345	0.304	0.305	0.107	-0.104	-0.211	1.014	0.294	-1.470	-0.381	0.734	1.652	2172	
579.787	-9.108	-78.641	1.729	-0.001	-3.122	0.715	1.251	0.247	0.220	0.305	0.115	-0.107	-0.212	1.013	0.294	-1.471	-0.381	0.734	1.653	2174	
579.489	-9.286	-78.597	1.728	-0.001	-3.122	0.608	1.274	0.181	0.130	0.308	0.129	-0.108	-0.212	1.013	0.294	-1.472	-0.381	0.733	1.654	2176	
578.732	-9.728	-78.491	1.725	-0.000	-3.123	0.462	1.276	0.095	-0.038	0.317	0.169	-0.112	-0.213	1.012	0.294	-1.474	-0.381	0.732	1.656	2179	
578.440	-9.905	-78.445	1.723	-0.000	-3.123	0.238	0.956	0.023	0.120	0.311	0.160	-0.112	-0.214	1.011	0.294	-1.476	-0.382	0.730	1.658	2183	
578.153	-10.084	-78.396	1.722	-0.000	-3.123	0.120	0.705	-0.025	0.301	0.296	0.158	-0.112	-0.214	1.010	0.294	-1.478	-0.382	0.729	1.660	2185	
577.871	-10.260	-78.345	1.721	-0.000	-3.123	0.165	0.481	-0.018	0.419	0.290	0.148	-0.112	-0.215	1.009	0.294	-1.480	-0.382	0.728	1.662	2187	
577.588	-10.433	-78.295	1.719	-0.000	-3.123	0.157	0.335	-0.011	0.385	0.294	0.137	-0.110	-0.215	1.009	0.294	-1.480	-0.382	0.728	1.662	2189	
577.019	-10.787	-78.198	1.717	-0.000	-3.124	-0.308	0.363	-0.210	0.400	0.277	0.145	-0.111	-0.216	1.008	0.294	-1.483	-0.383	0.726	1.665	2191	
565.388	-17.108	-76.604	1.668	0.001	-3.130	0.459	0.777	0.044	0.105	0.301	0.155	-0.128	-0.233	0.984	0.294	-1.532	-0.390	0.696	1.715	2279	
565.021	-17.299	-76.564	1.666	0.001	-3.130	0.525	0.801	-0.055	0.192	0.293	0.158	-0.133	-0.234	0.983	0.294	-1.534	-0.390	0.695	1.717	2283	
559.666	-19.982	-75.944	1.644	0.001	-3.132	0.684	0.730	0.138	0.223	0.297	0.149	-0.132	-0.241	0.973	0.294	-1.556	-0.393	0.681	1.738	2329	
551.227	-23.941	-74.823	1.611	0.001	-3.136	0.566	0.231	0.107	0.321	0.269	0.164	-0.118	-0.253	0.957	0.294	-1.589	-0.398	0.661	1.772	2419	
546.256	-26.133	-74.185	1.591	0.001	-3.139	0.900	1.406	0.163	-0.180	0.309	0.176	-0.126	-0.260	0.948	0.294	-1.609	-0.401	0.648	1.792	2508	
546.121	-26.182	-74.181	1.591	0.001	-3.139	0.535	1.568	0.029	0.032	0.292	0.157	-0.125	-0.260	0.947	0.294	-1.610	-0.402	0.648	1.793	2512	
544.549	-26.876	-73.936	1.585	0.001	-3.139	0.427	1.728	-0.051	-0.182	0.300	0.190	-0.125	-0.262	0.944	0.294	-1.616	-0.402	0.644	1.799	2557	
544.449	-26.921	-73.921	1.584	0.001	-3.139	0.277	1.460	-0.109	-0.070	0.295	0.194	-0.124	-0.262	0.944	0.294	-1.617	-0.403	0.644	1.799	2561	
543.832	-27.219	-73.796	1.581	0.000	-3.140	0.643	0.526	0.077	0.359	0.275	0.158	-0.125	-0.263	0.943	0.294	-1.619	-0.403	0.642	1.802	2591	
543.763	-27.245	-73.787	1.581	0.000	-3.140	0.686	0.581	0.094	0.341	0.275	0.157	-0.125	-0.263	0.943	0.294	-1.619	-0.403	0.642	1.802	2594	
543.665	-27.276	-73.779	1.581	0.000	-3.140	0.808	0.777	0.169	0.326	0.279	0.160	-0.127	-0.264	0.942	0.294	-1.620	-0.403	0.642	1.803	2598	
543.567	-27.309	-73.774	1.580	0.000	-3.140	0.745	0.753	0.165	0.437	0.275	0.149	-0.126	-0.264	0.942	0.294	-1.620	-0.403	0.641	1.803	2602	
543.499	-27.337	-73.767	1.580	0.000	-3.140	0.746	0.713	0.178	0.538	0.272	0.136	-0.126	-0.264	0.942	0.294	-1.620	-0.403	0.641	1.803	2605	
543.450	-27.356	-73.764	1.580	0.000	-3.140	0.732	0.753	0.190	0.550	0.272	0.130	-0.127	-0.264	0.942	0.294	-1.621	-0.403	0.641	1.804	2607	
543.425	-27.365	-73.763	1.580	0.000	-3.140	0.689	0.845	0.185	0.528	0.274	0.128	-0.127	-0.264	0.942	0.294	-1.621	-0.403	0.641	1.804	2609	
543.374	-27.386	-73.761	1.579	0.000	-3.140	0.592	0.997	0.152	0.421	0.279	0.137	-0.128	-0.264	0.942	0.294	-1.621	-0.403	0.641	1.804	2610	
543.254	-27.427	-73.761	1.579	0.000	-3.140	0.639	1.193	0.155	0.283	0.284	0.149	-0.129	-0.264	0.942	0.294	-1.621	-0.403	0.641	1.804	2614	
543.157	-27.457	-73.765	1.579	0.000	-3.140	0.626	1.281	0.145	0.214	0.287	0.158	-0.130	-0.264	0.942	0.294	-1.622	-0.403	0.640	1.805	2617	
543.123	-27.467	-73.767	1.579	0.000	-3.140	0.609	1.353	0.129	0.134	0.291	0.169	-0.131	-0.264	0.942	0.294	-1.622	-0.403	0.640	1.805	2619	
543.056	-27.486	-73.770	1.578	0.000	-3.140	0.591	1.353	0.120	0.106	0.292	0.173	-0.132	-0.264	0.942	0.294	-1.622	-0.403	0.640	1.805	2620	
542.991	-27.504	-73.774	1.578	0.000	-3.140	0.588	1.366	0.106	0.094	0.293	0.176	-0.132	-0.264	0.941	0.294	-1.622	-0.403	0.640	1.805	2622	
542.871	-27.544	-73.778	1.578	0.000	-3.140	0.544	1.198	0.075	0.219	0.284	0.172	-0.133	-0.264	0.941	0.294	-1.623	-0.403	0.640	1.806	2626	
542.811	-27.565	-73.781	1.577	0.000	-3.140	0.490	1.183	0.039	0.233	0.279	0.174	-0.134	-0.265	0.941	0.294	-1.623	-0.403	0.640	1.806	2628	
542.780	-27.575	-73.783	1.577	0.000	-3.140	0.469	1.219	0.001	0.188	0.278	0.181	-0.135	-0.265	0.941	0.294	-1.623	-0.403	0.640	1.806	2630	
542.716	-27.596	-73.789	1.577	0.000	-3.140	0.474	1.265	-0.013	0.139	0.279	0.187	-0.135	-0.265	0.941	0.294	-1.623	-0.403	0.640	1.806	2631	
542.684	-27.606	-73.791	1.577	0.000	-3.140	0.447	1.288	-0.047	0.095	0.279	0.196	-0.137	-0.265	0.941	0.294	-1.623	-0.403	0.639	1.807	2632	
542.619	-27.628	-73.799	1.576	0.000	-3.140	0.366	1.391	-0.128	-0.034	0.283	0.214	-0.140	-0.265	0.941	0.294	-1.623	-0.403	0.639	1.807	2635	
542.480	-27.673	-73.819	1.576	0.000	-3.140	0.385	1.390	-0.136	-0.065	0.284	0.218	-0.142	-0.265	0.941	0.294	-1.624	-0.404	0.639	1.808	2638	
542.413	-27.696	-73.828	1.576	0.000	-3.140	0.315	1.208	-0.150	0.090	0.278	0.207	-0.144	-0.265	0.941	0.294	-1.624	-0.404	0.639	1.808	2640	
542.261	-27.759	-73.854	1.575	0.000	-3.140	0.325	1.069	-0.131	0.235	0.276	0.187	-0.147	-0.265	0.941	0.294	-1.625	-0.404	0.638	1.809	2645	
542.138	-27.809	-73.881	1.574	0.000	-3.140	0.359	1.137	-0.096	0.169	0.281	0.193	-0.151	-0.265	0.940	0.294	-1.625	-0.404	0.638	1.809	2647	
542.078	-27.833	-73.898	1.574	0.000	-3.140	0.454	1.154	-0.049	0.156	0.285	0.196	-0.153	-0.266	0.940	0.294	-1.625	-0.404	0.638	1.810	2651	
542.016	-27.855	-73.918	1.573	0.000	-3.140	0.536	1.178	-0.000	0.104	0.290	0.200	-0.155	-0.266	0.940	0.294	-1.626	-0.404	0.638	1.810	2653	
541.955	-27.879	-73.938	1.573	0.000	-3.140	0.532	1.104	0.022	0.121	0.291	0.201	-0.157	-0.266	0.940	0.294	-1.626	-0.404	0.637	1.811	2655	
541.893	-27.903	-73.960	1.573	0.000	-3.140	0.582	1.058	0.051	0.175	0.291	0.197	-0.159	-0.266	0.940	0.294	-1.626	-0.404	0.637	1.811	2657	
541.776	-27.957	-74.007	1.572	0.000	-3.140	0.541	0.935	0.065	0.342	0.285	0.167	-0.159	-0.266	0.940	0.294	-1.627	-0.404	0.637	1.812	2659	
541.713	-27.985	-74.035	1.572	0.000	-3.140	0.566	0.993	0.067	0.321	0.284	0.163	-0.160	-0.266	0.940	0.294	-1.627	-0.404	0.637	1.812	2663	
541.647	-28.014	-74.066	1.571	0.000	-3.141	0.582	1.050	0.068	0.266	0.286	0.171	-0.160	-0.266	0.940	0.294	-1.627	-0.405	0.636	1.813	2665	
541.577	-28.043	-74.101	1.571	0.000	-3.141	0.591	1.140	0.067	0.179	0.289	0.184	-0.160	-0.266	0.940	0.294	-1.627	-0.405	0.636	1.813	2667	
541.508	-28.069	-74.140	1.571	0.000	-3.141	0.612	1.183	0.070	0.146	0.291	0.187	-0.160	-0.266	0.940	0.294	-1.628	-0.405	0.636	1.813	2669	
541.473	-28.082	-74.161	1.570	0.000	-3.141	0.771	1.234	0.132	0.050	0.295	0.199	-0.159	-0.266	0.940	0.294	-1.628	-0.405	0.636	1.814	2671	
541.337	-28.132	-74.250	1.570	0.000	-3.141	0.769	1.173	0.142	0.081	0.293	0.200	-0.159	-0.267	0.940	0.294	-1.628	-0.405	0.635	1.814	2674	
541.267	-28.160	-74.298	1.569	0.000	-3.141	0.762	1.108	0.148	0.111	0.291	0.197	-0.158	-0.267	0.940	0.294	-1.629	-0.405	0.635	1.815	2676	
541.200	-28.188	-74.348	1.569	0.000	-3.141	0.741	1.068	0.144	0.133	0.290	0.192	-0.157	-0.267	0.940	0.294	-1.629	-0.405	0.635	1.815	2678	
541.165	-28.205	-74.375	1.569	0.000	-3.141	0.654	1.025	0.115	0.131	0.289	0.188	-0.155	-0.267	0.940	0.294	-1.629	-0.405	0.634	1.816	2680	
541.096	-28.235	-74.430	1.569	0.000	-3.141	0.622	1.015	0.098	0.119	0.289	0.188	-0.154	-0.267	0.940	0.294	-1.629	-0.406	0.634	1.816	2681	
541.061	-28.251	-74.459	1.568	0.000	-3.141	0.633	0.863	0.098	0.109	0.289	0.199	-0.152	-0.267	0.940	0.294	-1.629	-0.406	0.634	1.816	2683	
540.928	-28.312	-74.579	1.568	0.000	-3.141	0.637	0.697	0.115	0.160	0.287	0.202	-0.150	-0.267	0.940	0.294	-1.630	-0.406	0.633	1.817	2686	
540.868	-28.342	-74.640	1.567	0.000	-3.141	0.670	0.469	0.155	0.255	0.284	0.197	-0.149	-0.267	0.940	0.294	-1.630	-0.406	0.633	1.817	2688	
540.810	-28.374	-74.701	1.567	0.000	-3.141	0.674	0.344	0.172	0.310	0.283	0.192	-0.148	-0.267	0.940	0.294	-1.630	-0.406	0.633	1.818	2690	
540.783	-28.392	-74.731	1.567	0.000	-3.141	0.651	0.222	0.180	0.361	0.281	0.188	-0.147	-0.267	0.940	0.294	-1.630	-0.406	0.633	1.818	2691	
540.727	-28.426	-74.795	1.567	0.000	-3.141	0.557	0.016	0.169	0.488	0.277	0.166	-0.144	-0.267	0.940	0.294	-1.631	-0.407	0.632	1.818	2693	
540.614	-28.495	-74.939	1.566	0.000	-3.141	0.536	0.375	0.142	0.372	0.281	0.160	-0.141	-0.268	0.940	0.294	-1.631	-0.407	0.632	1.819	2695	
540.554	-28.526	-75.020	1.566	0.000	-3.141	0.645	0.516	0.168	0.236	0.287	0.174	-0.140	-0.268	0.940	0.294	-1.631	-0.407	0.631	1.819	2699	
540.491	-28.557	-75.105	1.566	0.000	-3.141	0.677	0.589	0.179	0.155	0.290	0.185	-0.140	-0.268	0.940	0.294	-1.631	-0.407	0.631	1.820	2701	
540.425	-28.587	-75.197	1.565	0.000	-3.141	0.731	0.652	0.202	0.048	0.296	0.203	-0.139	-0.268	0.940	0.294	-1.632	-0.407	0.631	1.820	2703	
540.360	-28.617	-75.293	1.565	0.000	-3.142	0.704	0.833	0.185	-0.050	0.298	0.216	-0.138	-0.268	0.940	0.294	-1.632	-0.408	0.631	1.820	2705	
540.228	-28.677	-75.502	1.565	0.000	-3.142	0.717	1.022	0.164	-0.101	0.299	0.207	-0.136	-0.268	0.940	0.294	-1.632	-0.408	0.630	1.821	2707	
540.166	-28.705	-75.611	1.565	0.000	-3.142	0.685	0.967	0.149	-0.066	0.296	0.202	-0.135	-0.268	0.941	0.294	-1.632	-0.408	0.630	1.821	2711	
540.105	-28.733	-75.725	1.564	0.000	3.142	0.717	0.865	0.163	0.011	0.291	0.201	-0.134	-0.268	0.941	0.294	-1.633	-0.409	0.630	1.822	2713	
540.047	-28.760	-75.840	1.564	0.000	3.142	0.713	0.731	0.173	0.108	0.286	0.203	-0.132	-0.268	0.941	0.294	-1.633	-0.409	0.629	1.822	2715	
540.018	-28.773	-75.901	1.564	0.000	3.142	0.727	0.633	0.187	0.170	0.283	0.200	-0.132	-0.268	0.941	0.294	-1.633	-0.409	0.629	1.822	2716	
539.963	-28.799	-76.021	1.564	0.000	3.142	0.684	0.511	0.189	0.232	0.277	0.191	-0.131	-0.269	0.941	0.294	-1.633	-0.409	0.629	1.822	2718	
539.891	-28.838	-76.204	1.564	0.000	3.141	0.563	-0.118	0.226	0.728	0.259	0.117	-0.127	-0.269	0.942	0.294	-1.633	-0.410	0.628	1.823	2722	
539.807	-28.891	-76.457	1.564	0.000	3.141	0.479	-0.218	0.209	0.737	0.256	0.115	-0.127	-0.269	0.942	0.294	-1.633	-0.410	0.628	1.823	2726	
539.763	-28.915	-76.588	1.564	0.000	3.141	0.489	-0.264	0.215	0.707	0.257	0.121	-0.126	-0.269	0.942	0.294	-1.633	-0.410	0.627	1.823	2727	
539.742	-28.927	-76.655	1.564	0.000	3.141	0.461	-0.369	0.219	0.666	0.258	0.136	-0.126	-0.269	0.942	0.294	-1.634	-0.410	0.627	1.824	2728	
539.700	-28.951	-76.789	1.564	0.000	3.141	0.416	-0.445	0.211	0.661	0.258	0.143	-0.126	-0.269	0.942	0.294	-1.634	-0.411	0.627	1.824	2730	
539.628	-29.000	-77.066	1.563	0.000	3.141	0.258	-0.603	0.163	0.607	0.262	0.162	-0.125	-0.269	0.943	0.294	-1.634	-0.411	0.626	1.824	2734	
539.612	-29.011	-77.136	1.563	0.000	3.141	0.239	-0.654	0.149	0.583	0.263	0.161	-0.125	-0.269	0.943	0.294	-1.634	-0.411	0.626	1.824	2736	
539.580	-29.032	-77.280	1.563	0.000	3.141	0.251	-0.645	0.150	0.549	0.264	0.161	-0.124	-0.269	0.943	0.294	-1.634	-0.411	0.626	1.825	2737	
539.566	-29.043	-77.352	1.563	0.000	3.141	0.230	-0.638	0.142	0.502	0.266	0.165	-0.124	-0.269	0.943	0.294	-1.634	-0.412	0.626	1.825	2739	
539.541	-29.063	-77.497	1.563	0.000	3.141	0.224	-0.676	0.141	0.506	0.267	0.166	-0.123	-0.269	0.944	0.294	-1.634	-0.412	0.626	1.825	2740	
539.516	-29.083	-77.644	1.563	0.000	3.141	0.216	-0.634	0.135	0.459	0.268	0.174	-0.123	-0.269	0.944	0.294	-1.634	-0.412	0.625	1.825	2742	
539.479	-29.110	-77.870	1.563	0.000	3.141	0.131	-0.348	0.073	0.288	0.274	0.190	-0.123	-0.269	0.944	0.294	-1.634	-0.413	0.625	1.825	2743	
539.454	-29.126	-78.024	1.563	0.000	3.141	0.152	-0.225	0.067	0.239	0.276	0.193	-0.123	-0.269	0.945	0.294	-1.634	-0.413	0.625	1.826	2747	
539.443	-29.133	-78.102	1.563	0.000	3.141	0.180	-0.008	0.058	0.168	0.280	0.194	-0.123	-0.269	0.945	0.294	-1.634	-0.413	0.624	1.826	2749	
539.421	-29.147	-78.259	1.563	0.000	3.141	0.168	0.096	0.046	0.132	0.283	0.195	-0.123	-0.269	0.945	0.294	-1.634	-0.413	0.624	1.826	2750	
539.411	-29.154	-78.338	1.563	0.000	3.141	0.161	0.238	0.026	0.065	0.289	0.199	-0.123	-0.269	0.945	0.294	-1.634	-0.413	0.624	1.826	2752	
539.389	-29.165	-78.496	1.563	0.000	3.141	0.182	0.287	0.025	0.034	0.291	0.203	-0.123	-0.270	0.945	0.294	-1.634	-0.413	0.624	1.826	2753	
539.381	-29.171	-78.575	1.563	0.000	3.141	0.261	0.444	0.034	-0.004	0.294	0.216	-0.125	-0.270	0.946	0.294	-1.634	-0.414	0.624	1.826	2755	
539.346	-29.190	-78.892	1.563	0.000	3.141	0.290	0.578	0.029	-0.030	0.294	0.220	-0.125	-0.270	0.946	0.294	-1.634	-0.414	0.623	1.827	2758	
539.328	-29.198	-79.053	1.563	0.000	3.141	0.319	0.699	0.027	-0.068	0.295	0.221	-0.126	-0.270	0.947	0.294	-1.634	-0.414	0.623	1.827	2760	
539.310	-29.204	-79.213	1.563	0.000	3.141	0.386	0.853	0.031	-0.110	0.298	0.219	-0.127	-0.270	0.947	0.294	-1.634	-0.415	0.623	1.827	2762	
539.302	-29.207	-79.293	1.563	0.000	3.141	0.447	0.916	0.041	-0.122	0.300	0.218	-0.127	-0.270	0.947	0.294	-1.634	-0.415	0.622	1.827	2764	
539.284	-29.212	-79.451	1.563	0.000	3.141	0.462	0.965	0.041	-0.128	0.299	0.219	-0.128	-0.270	0.947	0.294	-1.634	-0.415	0.622	1.827	2765	
539.255	-29.222	-79.763	1.563	0.000	3.141	0.479	1.013	0.033	-0.001	0.290	0.209	-0.129	-0.270	0.948	0.294	-1.634	-0.415	0.622	1.827	2767	
539.239	-29.225	-79.918	1.563	0.000	3.141	0.493	1.096	0.027	0.037	0.288	0.198	-0.131	-0.270	0.948	0.294	-1.634	-0.416	0.622	1.828	2771	
539.223	-29.228	-80.071	1.563	0.000	3.141	0.486	1.130	0.024	0.050	0.288	0.194	-0.131	-0.270	0.949	0.294	-1.634	-0.416	0.621	1.828	2773	
539.215	-29.229	-80.147	1.563	0.000	3.141	0.453	1.271	0.007	0.070	0.290	0.187	-0.132	-0.270	0.949	0.294	-1.633	-0.416	0.621	1.828	2775	
539.197	-29.233	-80.299	1.563	0.000	3.141	0.432	1.337	-0.002	0.072	0.291	0.184	-0.132	-0.270	0.949	0.294	-1.633	-0.416	0.621	1.828	2776	
539.179	-29.236	-80.448	1.563	0.000	3.141	0.314	1.517	-0.035	0.077	0.293	0.176	-0.134	-0.270	0.949	0.294	-1.633	-0.416	0.621	1.828	2778	
539.139	-29.242	-80.742	1.563	0.000	3.141	0.286	1.517	-0.039	0.094	0.295	0.176	-0.134	-0.270	0.950	0.294	-1.633	-0.417	0.621	1.828	2782	
539.122	-29.244	-80.886	1.563	0.000	3.141	0.250	1.532	-0.042	0.095	0.298	0.178	-0.135	-0.270	0.950	0.294	-1.633	-0.417	0.621	1.828	2784	
539.105	-29.246	-81.029	1.563	0.000	3.141	0.221	1.641	-0.048	0.064	0.302	0.181	-0.135	-0.270	0.951	0.294	-1.633	-0.417	0.620	1.829	2786	
539.096	-29.246	-81.101	1.563	0.000	3.141	0.203	1.752	-0.058	-0.001	0.305	0.187	-0.136	-0.270	0.951	0.294	-1.633	-0.417	0.620	1.829	2788	
539.081	-29.246	-81.244	1.563	0.000	3.142	0.188	1.894	-0.075	-0.067	0.306	0.193	-0.137	-0.270	0.951	0.294	-1.633	-0.418	0.620	1.829	2789	
539.054	-29.242	-81.522	1.563	0.000	-3.142	0.178	1.875	-0.102	-0.106	0.309	0.202	-0.137	-0.270	0.951	0.294	-1.633	-0.418	0.620	1.829	2791	
539.041	-29.241	-81.657	1.563	0.000	-3.142	0.193	1.818	-0.131	-0.156	0.307	0.210	-0.138	-0.270	0.952	0.294	-1.633	-0.418	0.620	1.829	2795	
539.029	-29.239	-81.790	1.563	0.000	-3.142	0.202	1.786	-0.156	-0.178	0.305	0.215	-0.139	-0.270	0.952	0.294	-1.633	-0.418	0.619	1.829	2797	
539.017	-29.236	-81.921	1.563	0.000	-3.142	0.211	1.757	-0.167	-0.184	0.304	0.217	-0.139	-0.270	0.952	0.294	-1.633	-0.418	0.619	1.829	2799	
539.011	-29.234	-81.985	1.563	0.000	-3.141	0.220	1.744	-0.193	-0.209	0.300	0.220	-0.140	-0.270	0.953	0.294	-1.633	-0.419	0.619	1.830	2801	
539.000	-29.231	-82.113	1.563	0.000	-3.141	0.214	1.603	-0.234	-0.203	0.297	0.224	-0.141	-0.270	0.953	0.294	-1.632	-0.419	0.619	1.830	2802	
538.981	-29.224	-82.361	1.563	-0.000	-3.141	0.205	1.458	-0.241	-0.153	0.295	0.223	-0.141	-0.270	0.953	0.294	-1.632	-0.419	0.619	1.830	2806	
538.973	-29.220	-82.480	1.563	-0.000	-3.141	0.203	1.388	-0.239	-0.130	0.294	0.221	-0.141	-0.270	0.954	0.294	-1.632	-0.419	0.619	1.830	2808	
538.972	-29.218	-82.539	1.563	-0.000	-3.141	0.211	1.313	-0.226	-0.090	0.295	0.215	-0.141	-0.270	0.954	0.294	-1.632	-0.419	0.619	1.830	2810	
538.967	-29.213	-82.656	1.563	-0.000	-3.141	0.219	1.283	-0.215	-0.083	0.295	0.212	-0.142	-0.270	0.954	0.294	-1.632	-0.419	0.618	1.830	2811	
538.965	-29.210	-82.715	1.563	-0.000	-3.141	0.260	1.211	-0.177	-0.080	0.298	0.207	-0.142	-0.270	0.954	0.294	-1.632	-0.419	0.618	1.830	2813	
538.966	-29.204	-82.828	1.563	-0.000	-3.141	0.345	0.888	-0.060	0.046	0.302	0.192	-0.143	-0.270	0.955	0.294	-1.632	-0.420	0.618	1.830	2814	
538.973	-29.191	-83.048	1.563	-0.000	-3.141	0.382	0.849	-0.008	0.077	0.303	0.189	-0.143	-0.270	0.955	0.294	-1.632	-0.420	0.618	1.831	2818	
538.976	-29.184	-83.157	1.563	-0.000	-3.141	0.403	0.873	0.014	0.065	0.304	0.190	-0.143	-0.270	0.955	0.294	-1.632	-0.420	0.618	1.831	2820	
538.978	-29.180	-83.211	1.563	-0.000	-3.141	0.455	0.745	0.081	0.085	0.306	0.187	-0.143	-0.270	0.955	0.294	-1.632	-0.420	0.618	1.831	2822	
538.984	-29.170	-83.425	1.563	-0.000	-3.141	0.478	0.668	0.105	0.115	0.306	0.182	-0.144	-0.270	0.956	0.294	-1.632	-0.420	0.617	1.831	2825	
538.990	-29.162	-83.634	1.563	-0.000	-3.141	0.532	0.578	0.153	0.156	0.303	0.175	-0.144	-0.270	0.956	0.294	-1.632	-0.421	0.617	1.831	2827	
538.996	-29.159	-83.736	1.563	-0.000	-3.141	0.537	0.457	0.175	0.231	0.299	0.169	-0.144	-0.270	0.956	0.294	-1.631	-0.421	0.617	1.831	2832	
539.002	-29.156	-83.836	1.563	-0.000	-3.141	0.535	0.407	0.183	0.250	0.298	0.168	-0.144	-0.270	0.957	0.294	-1.631	-0.421	0.617	1.831	2833	
539.006	-29.155	-83.887	1.563	-0.000	-3.141	0.511	0.357	0.186	0.297	0.296	0.164	-0.144	-0.270	0.957	0.294	-1.631	-0.421	0.617	1.831	2835	
539.013	-29.154	-83.987	1.563	-0.000	-3.141	0.498	0.346	0.183	0.311	0.295	0.163	-0.144	-0.270	0.957	0.294	-1.631	-0.421	0.617	1.832	2836	
539.021	-29.153	-84.088	1.563	-0.000	-3.141	0.484	0.377	0.177	0.309	0.294	0.161	-0.144	-0.270	0.957	0.294	-1.631	-0.421	0.617	1.832	2838	
539.035	-29.151	-84.240	1.563	-0.000	-3.141	0.520	0.432	0.180	0.309	0.292	0.161	-0.143	-0.270	0.958	0.294	-1.631	-0.422	0.616	1.832	2839	
539.047	-29.149	-84.341	1.563	-0.000	-3.142	0.564	0.456	0.197	0.288	0.292	0.162	-0.143	-0.270	0.958	0.294	-1.631	-0.422	0.616	1.832	2843	
539.059	-29.146	-84.442	1.563	-0.000	-3.142	0.582	0.453	0.207	0.265	0.293	0.166	-0.143	-0.270	0.958	0.294	-1.631	-0.422	0.616	1.832	2845	
539.070	-29.143	-84.543	1.563	-0.000	-3.142	0.582	0.425	0.209	0.259	0.292	0.167	-0.143	-0.270	0.958	0.294	-1.631	-0.422	0.616	1.832	2847	
539.074	-29.141	-84.594	1.563	-0.000	-3.142	0.586	0.492	0.205	0.187	0.294	0.172	-0.144	-0.270	0.958	0.294	-1.631	-0.422	0.616	1.832	2849	
539.081	-29.139	-84.695	1.563	-0.000	-3.142	0.579	0.510	0.199	0.163	0.294	0.174	-0.144	-0.270	0.959	0.294	-1.631	-0.422	0.616	1.832	2850	
539.085	-29.136	-84.846	1.563	-0.000	-3.142	0.578	0.445	0.189	0.106	0.293	0.176	-0.144	-0.270	0.959	0.294	-1.631	-0.423	0.615	1.833	2854	
539.084	-29.135	-84.946	1.563	-0.000	-3.142	0.572	0.427	0.184	0.098	0.293	0.174	-0.143	-0.270	0.959	0.294	-1.631	-0.423	0.615	1.833	2855	
539.082	-29.134	-85.046	1.563	-0.000	-3.142	0.572	0.394	0.185	0.106	0.292	0.172	-0.143	-0.270	0.959	0.294	-1.631	-0.423	0.615	1.833	2857	
539.080	-29.134	-85.096	1.563	-0.000	-3.142	0.563	0.392	0.182	0.117	0.290	0.169	-0.143	-0.270	0.959	0.294	-1.631	-0.423	0.615	1.833	2859	
539.076	-29.133	-85.197	1.563	-0.000	-3.142	0.560	0.405	0.181	0.106	0.291	0.169	-0.143	-0.270	0.960	0.294	-1.630	-0.423	0.615	1.833	2860	
539.072	-29.133	-85.296	1.563	-0.000	-3.142	0.552	0.342	0.186	0.111	0.290	0.169	-0.142	-0.270	0.960	0.294	-1.630	-0.423	0.615	1.833	2862	
539.068	-29.134	-85.494	1.563	-0.000	-3.142	0.515	0.203	0.198	0.174	0.288	0.170	-0.142	-0.270	0.960	0.294	-1.630	-0.423	0.615	1.833	2866	
539.067	-29.134	-85.593	1.563	-0.000	-3.142	0.486	0.152	0.200	0.209	0.287	0.167	-0.141	-0.270	0.960	0.294	-1.630	-0.424	0.615	1.833	2868	
539.065	-29.134	-85.642	1.563	-0.000	-3.141	0.466	0.113	0.201	0.199	0.286	0.167	-0.141	-0.270	0.961	0.294	-1.630	-0.424	0.614	1.833	2870	
539.064	-29.135	-85.741	1.563	-0.000	-3.141	0.445	0.063	0.200	0.217	0.286	0.168	-0.140	-0.270	0.961	0.294	-1.630	-0.424	0.614	1.834	2871	
539.064	-29.135	-85.839	1.563	-0.000	-3.141	0.439	-0.005	0.204	0.243	0.285	0.168	-0.140	-0.270	0.961	0.294	-1.630	-0.424	0.614	1.834	2873	
539.070	-29.136	-86.036	1.563	-0.000	-3.141	0.411	-0.038	0.202	0.301	0.280	0.167	-0.139	-0.270	0.961	0.294	-1.630	-0.424	0.614	1.834	2875	
539.073	-29.135	-86.137	1.563	-0.000	-3.142	0.417	0.071	0.194	0.252	0.280	0.171	-0.139	-0.270	0.962	0.294	-1.630	-0.424	0.614	1.834	2879	
539.075	-29.135	-86.187	1.563	-0.000	-3.142	0.408	0.109	0.183	0.263	0.278	0.171	-0.138	-0.270	0.962	0.294	-1.630	-0.425	0.614	1.834	2881	
539.076	-29.136	-86.288	1.563	-0.000	-3.142	0.405	0.104	0.179	0.266	0.277	0.171	-0.138	-0.270	0.962	0.294	-1.630	-0.425	0.614	1.834	2882	
539.079	-29.135	-86.389	1.563	-0.000	-3.142	0.401	0.152	0.168	0.268	0.275	0.171	-0.138	-0.270	0.962	0.294	-1.630	-0.425	0.614	1.834	2884	
539.082	-29.135	-86.490	1.563	-0.000	-3.142	0.388	0.174	0.158	0.298	0.272	0.167	-0.137	-0.270	0.962	0.294	-1.630	-0.425	0.613	1.834	2886	
539.080	-29.135	-86.694	1.563	-0.000	-3.142	0.360	0.311	0.134	0.280	0.268	0.165	-0.136	-0.270	0.963	0.294	-1.630	-0.425	0.613	1.835	2890	
539.079	-29.135	-86.797	1.563	-0.000	-3.141	0.328	0.397	0.115	0.261	0.269	0.164	-0.135	-0.270	0.963	0.294	-1.629	-0.426	0.613	1.835	2892	
539.071	-29.136	-86.951	1.563	-0.000	-3.141	0.313	0.464	0.104	0.221	0.270	0.167	-0.135	-0.270	0.963	0.294	-1.629	-0.426	0.613	1.835	2895	
539.069	-29.136	-87.004	1.563	-0.000	-3.141	0.302	0.588	0.094	0.182	0.271	0.169	-0.134	-0.270	0.964	0.294	-1.629	-0.426	0.613	1.835	2897	
539.065	-29.136	-87.108	1.563	-0.000	-3.141	0.295	0.725	0.085	0.131	0.274	0.172	-0.133	-0.270	0.964	0.294	-1.629	-0.426	0.613	1.835	2898	
539.055	-29.137	-87.319	1.563	-0.000	-3.141	0.287	0.809	0.075	0.095	0.276	0.175	-0.132	-0.270	0.964	0.294	-1.629	-0.426	0.612	1.835	2902	
539.051	-29.138	-87.425	1.563	-0.000	-3.141	0.294	0.837	0.072	0.055	0.279	0.177	-0.131	-0.270	0.964	0.294	-1.629	-0.426	0.612	1.835	2904	
539.048	-29.139	-87.530	1.563	-0.000	-3.141	0.295	0.845	0.069	0.047	0.278	0.179	-0.131	-0.270	0.965	0.294	-1.629	-0.427	0.612	1.835	2906	
539.045	-29.140	-87.636	1.563	-0.000	-3.141	0.305	0.835	0.069	0.036	0.277	0.181	-0.130	-0.270	0.965	0.294	-1.629	-0.427	0.612	1.836	2908	
539.041	-29.141	-87.899	1.563	-0.000	-3.141	0.331	0.826	0.073	0.003	0.276	0.185	-0.129	-0.270	0.965	0.294	-1.629	-0.427	0.612	1.836	2911	
539.039	-29.143	-88.004	1.563	-0.000	-3.141	0.333	0.847	0.069	-0.017	0.277	0.188	-0.129	-0.270	0.966	0.294	-1.629	-0.427	0.612	1.836	2915	
539.037	-29.144	-88.109	1.563	-0.000	-3.141	0.330	0.851	0.063	-0.011	0.276	0.188	-0.128	-0.270	0.966	0.294	-1.629	-0.427	0.611	1.836	2917	
539.035	-29.146	-88.214	1.563	-0.000	-3.141	0.330	0.848	0.060	-0.010	0.276	0.189	-0.128	-0.270	0.966	0.294	-1.629	-0.428	0.611	1.836	2919	
539.033	-29.146	-88.267	1.563	-0.000	-3.141	0.323	0.878	0.053	-0.006	0.275	0.187	-0.127	-0.270	0.966	0.294	-1.629	-0.428	0.611	1.836	2921	
539.021	-29.153	-88.530	1.563	-0.000	-3.141	0.312	0.802	0.054	0.039	0.275	0.183	-0.126	-0.270	0.967	0.294	-1.628	-0.428	0.611	1.837	2922	
539.017	-29.156	-88.634	1.563	-0.000	-3.141	0.305	0.764	0.058	0.080	0.272	0.178	-0.126	-0.270	0.967	0.294	-1.628	-0.428	0.611	1.837	2927	
539.015	-29.158	-88.738	1.563	0.000	-3.141	0.306	0.730	0.064	0.111	0.272	0.174	-0.125	-0.270	0.967	0.294	-1.628	-0.428	0.611	1.837	2929	
539.013	-29.159	-88.790	1.563	0.000	-3.141	0.311	0.731	0.073	0.121	0.271	0.170	-0.125	-0.270	0.967	0.294	-1.628	-0.429	0.611	1.837	2931	
539.013	-29.160	-88.894	1.563	0.000	-3.141	0.314	0.720	0.081	0.147	0.270	0.168	-0.124	-0.270	0.968	0.294	-1.628	-0.429	0.610	1.837	2932	
539.015	-29.160	-88.998	1.563	0.000	-3.141	0.323	0.729	0.093	0.177	0.268	0.167	-0.123	-0.270	0.968	0.294	-1.628	-0.429	0.610	1.837	2934	
539.021	-29.160	-89.207	1.563	0.000	-3.141	0.320	0.731	0.091	0.185	0.267	0.167	-0.123	-0.270	0.968	0.294	-1.628	-0.429	0.610	1.837	2938	
539.022	-29.159	-89.313	1.563	0.000	-3.141	0.304	0.779	0.077	0.151	0.267	0.170	-0.123	-0.270	0.968	0.294	-1.628	-0.429	0.610	1.837	2940	
539.022	-29.159	-89.366	1.563	0.000	-3.141	0.280	0.864	0.053	0.104	0.268	0.172	-0.123	-0.270	0.969	0.294	-1.628	-0.430	0.610	1.837	2942	
539.024	-29.160	-89.472	1.563	0.000	-3.141	0.271	0.848	0.044	0.110	0.268	0.172	-0.123	-0.270	0.969	0.294	-1.628	-0.430	0.610	1.837	2943	
539.024	-29.160	-89.525	1.563	0.000	-3.141	0.241	0.814	0.023	0.117	0.266	0.171	-0.122	-0.270	0.969	0.294	-1.628	-0.430	0.610	1.838	2945	
539.027	-29.161	-89.630	1.563	0.000	-3.141	0.232	0.787	0.016	0.131	0.265	0.170	-0.122	-0.270	0.969	0.294	-1.628	-0.430	0.609	1.838	2946	
539.026	-29.163	-89.788	1.563	0.000	-3.141	0.216	0.814	-0.011	0.099	0.264	0.172	-0.122	-0.270	0.969	0.294	-1.628	-0.430	0.609	1.838	2950	
539.027	-29.165	-89.893	1.563	0.000	-3.141	0.205	0.804	-0.018	0.117	0.265	0.171	-0.122	-0.270	0.970	0.294	-1.628	-0.430	0.609	1.838	2952	
539.026	-29.168	-89.997	1.563	0.000	-3.141	0.195	0.787	-0.023	0.111	0.266	0.171	-0.122	-0.270	0.970	0.294	-1.628	-0.431	0.609	1.838	2954	
539.025	-29.171	-90.102	1.563	0.000	-3.141	0.187	0.837	-0.030	0.097	0.267	0.171	-0.122	-0.270	0.970	0.294	-1.627	-0.431	0.609	1.838	2955	
539.024	-29.172	-90.208	1.563	0.000	-3.141	0.187	0.876	-0.032	0.084	0.269	0.171	-0.122	-0.270	0.970	0.294	-1.627	-0.431	0.609	1.838	2957	
539.022	-29.175	-90.314	1.563	0.000	-3.141	0.222	1.007	-0.027	0.002	0.274	0.179	-0.121	-0.270	0.971	0.294	-1.627	-0.431	0.609	1.838	2959	
539.026	-29.177	-90.579	1.563	0.000	-3.141	0.261	0.940	-0.007	0.005	0.276	0.180	-0.121	-0.270	0.971	0.294	-1.627	-0.431	0.608	1.839	2964	
539.027	-29.178	-90.686	1.563	0.000	-3.141	0.277	0.959	-0.003	-0.022	0.277	0.182	-0.121	-0.270	0.971	0.294	-1.627	-0.432	0.608	1.839	2966	
539.028	-29.178	-90.739	1.563	0.000	-3.141	0.309	0.989	0.004	-0.069	0.279	0.188	-0.121	-0.270	0.972	0.294	-1.627	-0.432	0.608	1.839	2968	
539.031	-29.178	-90.844	1.563	0.000	-3.141	0.324	0.958	0.010	-0.060	0.279	0.188	-0.121	-0.270	0.972	0.294	-1.627	-0.432	0.608	1.839	2969	
539.032	-29.178	-90.897	1.563	0.000	-3.141	0.366	0.937	0.019	-0.068	0.279	0.189	-0.120	-0.270	0.972	0.294	-1.627	-0.432	0.608	1.839	2971	
539.038	-29.178	-91.109	1.563	0.000	-3.141	0.387	0.907	0.023	-0.076	0.279	0.189	-0.120	-0.270	0.972	0.294	-1.627	-0.432	0.607	1.839	2974	
539.041	-29.179	-91.214	1.563	0.000	-3.141	0.399	0.875	0.027	-0.077	0.279	0.190	-0.120	-0.270	0.972	0.294	-1.627	-0.432	0.607	1.839	2976	
539.043	-29.180	-91.266	1.563	0.000	-3.141	0.411	0.853	0.029	-0.070	0.279	0.192	-0.120	-0.270	0.973	0.294	-1.627	-0.432	0.607	1.839	2978	
539.048	-29.181	-91.370	1.563	0.000	-3.141	0.416	0.846	0.031	-0.067	0.279	0.192	-0.120	-0.270	0.973	0.294	-1.627	-0.433	0.607	1.840	2979	
539.051	-29.181	-91.422	1.563	0.000	-3.142	0.423	0.749	0.041	-0.015	0.278	0.187	-0.120	-0.270	0.973	0.294	-1.627	-0.433	0.607	1.840	2981	
539.054	-29.182	-91.526	1.563	0.000	-3.142	0.439	0.725	0.053	-0.029	0.279	0.187	-0.120	-0.270	0.973	0.294	-1.627	-0.433	0.607	1.840	2982	
539.062	-29.184	-91.734	1.563	0.000	-3.142	0.446	0.690	0.068	0.006	0.280	0.182	-0.120	-0.270	0.974	0.294	-1.626	-0.433	0.607	1.840	2986	
539.065	-29.186	-91.785	1.563	0.000	-3.142	0.441	0.625	0.076	0.056	0.279	0.178	-0.120	-0.270	0.974	0.294	-1.626	-0.433	0.607	1.840	2988	
539.070	-29.188	-91.888	1.563	0.000	-3.142	0.438	0.595	0.080	0.083	0.278	0.175	-0.119	-0.270	0.974	0.294	-1.626	-0.433	0.607	1.840	2989	
539.073	-29.189	-91.940	1.563	0.000	-3.142	0.446	0.537	0.091	0.110	0.277	0.173	-0.119	-0.270	0.974	0.294	-1.626	-0.434	0.606	1.840	2991	
539.079	-29.191	-92.043	1.563	0.000	-3.142	0.451	0.501	0.100	0.151	0.276	0.171	-0.119	-0.270	0.974	0.294	-1.626	-0.434	0.606	1.840	2992	
539.119	-29.213	-94.365	1.563	0.000	3.142	0.404	0.328	0.115	0.136	0.272	0.187	-0.116	-0.270	0.979	0.294	-1.625	-0.437	0.603	1.843	3036	
539.118	-29.214	-94.473	1.563	0.000	3.142	0.412	0.298	0.117	0.139	0.272	0.188	-0.116	-0.270	0.980	0.294	-1.625	-0.438	0.603	1.843	3038	
539.116	-29.215	-94.582	1.563	0.000	3.142	0.414	0.328	0.114	0.140	0.272	0.189	-0.116	-0.270	0.980	0.294	-1.624	-0.438	0.603	1.843	3040	
539.115	-29.216	-94.691	1.563	0.000	3.142	0.434	0.252	0.123	0.174	0.271	0.189	-0.116	-0.270	0.980	0.294	-1.624	-0.438	0.603	1.843	3042	
539.113	-29.216	-94.909	1.563	0.000	3.142	0.447	0.246	0.129	0.166	0.271	0.191	-0.117	-0.270	0.981	0.294	-1.624	-0.438	0.603	1.844	3046	
539.115	-29.216	-95.017	1.563	0.000	3.142	0.457	0.185	0.140	0.202	0.270	0.191	-0.117	-0.270	0.981	0.294	-1.624	-0.438	0.603	1.844	3048	
539.115	-29.215	-95.072	1.563	0.000	3.142	0.468	0.166	0.150	0.221	0.270	0.191	-0.117	-0.270	0.981	0.294	-1.624	-0.438	0.602	1.844	3050	
539.116	-29.214	-95.181	1.563	0.000	3.142	0.473	0.162	0.154	0.228	0.271	0.190	-0.117	-0.270	0.981	0.294	-1.624	-0.439	0.602	1.844	3051	
539.115	-29.214	-95.237	1.563	0.000	3.142	0.476	0.216	0.154	0.223	0.270	0.188	-0.118	-0.270	0.981	0.294	-1.624	-0.439	0.602	1.844	3053	
539.112	-29.212	-95.348	1.563	0.000	3.142	0.480	0.224	0.155	0.212	0.272	0.186	-0.119	-0.270	0.981	0.294	-1.624	-0.439	0.602	1.844	3054	
539.104	-29.211	-95.570	1.563	0.000	3.142	0.479	0.251	0.153	0.209	0.272	0.186	-0.119	-0.270	0.982	0.294	-1.624	-0.439	0.602	1.844	3058	
539.101	-29.210	-95.681	1.563	0.000	3.142	0.480	0.258	0.156	0.243	0.272	0.183	-0.120	-0.270	0.982	0.294	-1.624	-0.439	0.602	1.844	3060	
539.094	-29.210	-95.793	1.563	0.000	3.142	0.478	0.243	0.159	0.260	0.271	0.180	-0.120	-0.270	0.982	0.294	-1.624	-0.439	0.602	1.844	3062	
539.091	-29.211	-95.848	1.563	0.000	3.142	0.468	0.277	0.157	0.269	0.270	0.178	-0.121	-0.270	0.983	0.294	-1.624	-0.440	0.601	1.845	3064	
539.085	-29.211	-95.960	1.563	0.000	3.142	0.456	0.294	0.154	0.283	0.270	0.174	-0.122	-0.270	0.983	0.294	-1.624	-0.440	0.601	1.845	3065	
539.069	-29.212	-96.186	1.563	0.000	-3.142	0.442	0.425	0.145	0.265	0.272	0.172	-0.123	-0.270	0.983	0.294	-1.624	-0.440	0.601	1.845	3067	
539.061	-29.211	-96.301	1.563	0.000	-3.142	0.437	0.498	0.136	0.233	0.274	0.174	-0.123	-0.270	0.983	0.294	-1.623	-0.440	0.601	1.845	3071	
539.054	-29.211	-96.417	1.563	0.000	-3.142	0.433	0.625	0.124	0.201	0.275	0.177	-0.124	-0.270	0.984	0.294	-1.623	-0.440	0.601	1.845	3073	
539.048	-29.211	-96.533	1.563	0.000	-3.142	0.431	0.736	0.108	0.158	0.276	0.183	-0.125	-0.270	0.984	0.294	-1.623	-0.441	0.601	1.845	3075	
539.044	-29.210	-96.650	1.563	0.000	-3.142	0.423	0.762	0.097	0.143	0.277	0.187	-0.126	-0.270	0.984	0.294	-1.623	-0.441	0.601	1.845	3077	
539.039	-29.208	-96.767	1.563	0.000	-3.142	0.415	0.786	0.073	0.051	0.281	0.203	-0.128	-0.270	0.984	0.294	-1.623	-0.441	0.600	1.845	3079	
539.032	-29.205	-97.000	1.563	0.000	-3.142	0.406	0.740	0.065	0.049	0.281	0.206	-0.129	-0.270	0.985	0.294	-1.623	-0.441	0.600	1.846	3084	
539.024	-29.203	-97.175	1.563	0.000	-3.142	0.404	0.746	0.056	0.018	0.281	0.211	-0.130	-0.270	0.985	0.294	-1.623	-0.441	0.600	1.846	3086	
539.020	-29.202	-97.291	1.563	0.000	-3.142	0.396	0.778	0.045	-0.016	0.283	0.214	-0.131	-0.270	0.985	0.294	-1.623	-0.442	0.600	1.846	3088	
539.013	-29.201	-97.409	1.563	0.000	-3.141	0.379	0.861	0.031	-0.054	0.285	0.215	-0.132	-0.270	0.986	0.294	-1.623	-0.442	0.600	1.846	3090	
539.002	-29.201	-97.585	1.563	0.000	-3.141	0.334	0.920	0.004	-0.080	0.287	0.218	-0.134	-0.270	0.986	0.294	-1.623	-0.442	0.599	1.847	3091	
538.996	-29.202	-97.702	1.563	0.000	-3.141	0.322	0.900	0.001	-0.059	0.287	0.216	-0.134	-0.270	0.986	0.294	-1.623	-0.442	0.599	1.847	3095	
538.992	-29.202	-97.760	1.563	0.000	-3.141	0.307	0.896	-0.003	-0.038	0.287	0.213	-0.136	-0.270	0.987	0.294	-1.622	-0.442	0.599	1.847	3097	
538.986	-29.203	-97.877	1.563	0.000	-3.141	0.303	0.873	-0.002	-0.022	0.286	0.211	-0.136	-0.270	0.987	0.294	-1.622	-0.442	0.599	1.847	3098	
538.984	-29.204	-97.935	1.563	0.000	-3.141	0.291	0.884	-0.001	0.005	0.286	0.204	-0.137	-0.270	0.987	0.294	-1.622	-0.443	0.599	1.847	3100	
538.980	-29.204	-98.052	1.563	0.000	-3.141	0.293	0.916	-0.000	-0.005	0.287	0.202	-0.138	-0.270	0.987	0.294	-1.622	-0.443	0.599	1.847	3101	
538.978	-29.204	-98.110	1.563	0.000	-3.141	0.302	0.925	0.012	-0.010	0.290	0.200	-0.140	-0.270	0.987	0.294	-1.622	-0.443	0.599	1.847	3103	
538.973	-29.202	-98.343	1.563	0.000	-3.141	0.305	0.912	0.015	0.004	0.289	0.199	-0.140	-0.270	0.988	0.294	-1.622	-0.443	0.599	1.847	3106	
538.970	-29.202	-98.402	1.563	0.000	-3.141	0.322	0.935	0.022	-0.008	0.290	0.203	-0.141	-0.270	0.988	0.294	-1.622	-0.443	0.598	1.847	3108	
538.966	-29.199	-98.520	1.563	0.000	-3.141	0.333	0.955	0.024	-0.024	0.291	0.207	-0.142	-0.270	0.988	0.294	-1.622	-0.443	0.598	1.847	3109	
538.966	-29.199	-98.579	1.563	0.000	-3.141	0.353	0.972	0.027	-0.022	0.290	0.209	-0.143	-0.270	0.988	0.294	-1.622	-0.444	0.598	1.848	3111	
538.961	-29.196	-98.697	1.563	0.000	-3.141	0.363	0.990	0.028	-0.034	0.291	0.209	-0.144	-0.270	0.989	0.294	-1.622	-0.444	0.598	1.848	3112	
538.960	-29.195	-98.756	1.563	0.000	-3.141	0.365	0.973	0.024	-0.022	0.290	0.207	-0.145	-0.270	0.989	0.294	-1.622	-0.444	0.598	1.848	3114	
538.951	-29.192	-98.991	1.563	-0.000	-3.141	0.368	0.959	0.008	0.015	0.286	0.198	-0.147	-0.270	0.989	0.294	-1.622	-0.444	0.598	1.848	3115	
538.947	-29.192	-99.107	1.563	-0.000	-3.141	0.363	0.941	0.004	0.043	0.284	0.195	-0.147	-0.270	0.989	0.294	-1.622	-0.444	0.598	1.848	3119	
538.947	-29.192	-99.166	1.563	-0.000	-3.141	0.351	0.908	-0.004	0.116	0.280	0.187	-0.148	-0.270	0.990	0.294	-1.622	-0.444	0.597	1.848	3121	
538.944	-29.194	-99.461	1.563	-0.000	-3.141	0.318	0.958	-0.027	0.145	0.279	0.182	-0.149	-0.270	0.990	0.294	-1.621	-0.445	0.597	1.849	3125	
538.943	-29.194	-99.521	1.563	0.000	-3.141	0.285	1.095	-0.050	0.089	0.284	0.185	-0.150	-0.270	0.990	0.294	-1.621	-0.445	0.597	1.849	3127	
538.944	-29.197	-99.762	1.563	0.000	-3.141	0.287	1.142	-0.051	0.046	0.286	0.187	-0.151	-0.270	0.991	0.294	-1.621	-0.445	0.597	1.849	3130	
538.946	-29.197	-99.883	1.563	0.000	-3.141	0.292	1.163	-0.047	-0.002	0.290	0.192	-0.152	-0.270	0.991	0.294	-1.621	-0.445	0.597	1.849	3132	
538.953	-29.197	-100.003	1.563	0.000	-3.141	0.297	1.086	-0.032	0.010	0.292	0.194	-0.152	-0.270	0.991	0.294	-1.621	-0.446	0.597	1.849	3134	
539.060	-29.184	-102.797	1.563	-0.000	-3.142	0.474	0.216	0.135	0.313	0.282	0.165	-0.156	-0.270	0.998	0.294	-1.619	-0.450	0.593	1.852	3180	
539.062	-29.184	-102.922	1.563	-0.000	-3.142	0.456	0.223	0.138	0.309	0.283	0.168	-0.155	-0.270	0.998	0.294	-1.619	-0.450	0.593	1.852	3182	
539.065	-29.182	-103.047	1.563	-0.000	-3.142	0.448	0.193	0.147	0.302	0.285	0.167	-0.154	-0.270	0.998	0.294	-1.619	-0.450	0.593	1.852	3184	
539.067	-29.181	-103.173	1.563	-0.000	-3.142	0.429	0.239	0.153	0.274	0.287	0.171	-0.152	-0.270	0.998	0.294	-1.619	-0.451	0.592	1.853	3186	
539.071	-29.176	-103.427	1.563	-0.000	-3.142	0.417	0.309	0.144	0.245	0.287	0.173	-0.152	-0.270	0.999	0.294	-1.618	-0.451	0.592	1.853	3190	
539.071	-29.175	-103.555	1.563	-0.000	-3.142	0.411	0.288	0.135	0.233	0.286	0.176	-0.151	-0.270	0.999	0.294	-1.618	-0.451	0.592	1.853	3192	
539.072	-29.175	-103.682	1.563	-0.000	3.142	0.403	0.261	0.130	0.234	0.285	0.176	-0.150	-0.270	0.999	0.294	-1.618	-0.451	0.592	1.853	3194	
539.071	-29.174	-103.746	1.563	-0.000	3.142	0.395	0.212	0.120	0.254	0.284	0.174	-0.149	-0.270	1.000	0.294	-1.618	-0.452	0.592	1.853	3196	
539.068	-29.174	-103.874	1.563	-0.000	-3.142	0.403	0.225	0.118	0.238	0.285	0.174	-0.149	-0.270	1.000	0.294	-1.618	-0.452	0.592	1.853	3197	
539.066	-29.175	-103.938	1.563	-0.000	-3.142	0.391	0.132	0.099	0.241	0.280	0.172	-0.147	-0.270	1.000	0.294	-1.618	-0.452	0.591	1.853	3199	
539.057	-29.177	-104.193	1.563	-0.000	-3.142	0.387	0.091	0.090	0.258	0.277	0.172	-0.147	-0.270	1.001	0.294	-1.618	-0.452	0.591	1.854	3202	
539.051	-29.178	-104.322	1.563	-0.000	-3.142	0.388	0.086	0.086	0.252	0.277	0.173	-0.146	-0.270	1.001	0.294	-1.618	-0.452	0.591	1.854	3204	
539.046	-29.178	-104.451	1.563	0.000	-3.142	0.391	0.129	0.079	0.241	0.276	0.173	-0.145	-0.270	1.001	0.294	-1.618	-0.453	0.591	1.854	3206	
539.046	-29.179	-104.515	1.563	0.000	-3.142	0.390	0.109	0.077	0.255	0.277	0.173	-0.144	-0.270	1.001	0.294	-1.618	-0.453	0.591	1.854	3208	
539.044	-29.179	-104.644	1.563	0.000	-3.142	0.392	0.117	0.077	0.247	0.277	0.173	-0.144	-0.270	1.001	0.294	-1.618	-0.453	0.591	1.854	3209	
539.044	-29.179	-104.709	1.563	0.000	-3.142	0.413	0.093	0.100	0.238	0.277	0.175	-0.142	-0.270	1.002	0.294	-1.618	-0.453	0.591	1.854	3211	
539.046	-29.177	-104.967	1.563	0.000	-3.142	0.419	0.150	0.110	0.228	0.277	0.175	-0.141	-0.270	1.002	0.294	-1.617	-0.454	0.590	1.855	3214	
539.047	-29.175	-105.098	1.563	0.000	-3.142	0.422	0.159	0.116	0.216	0.278	0.175	-0.141	-0.270	1.002	0.294	-1.617	-0.454	0.590	1.855	3216	
539.047	-29.174	-105.163	1.563	0.000	-3.142	0.417	0.227	0.119	0.181	0.281	0.175	-0.140	-0.270	1.003	0.294	-1.617	-0.454	0.590	1.855	3218	
539.048	-29.173	-105.294	1.563	0.000	-3.142	0.414	0.265	0.120	0.172	0.282	0.176	-0.139	-0.270	1.003	0.294	-1.617	-0.454	0.590	1.855	3220	
539.047	-29.171	-105.426	1.563	0.000	-3.142	0.417	0.324	0.119	0.155	0.283	0.177	-0.138	-0.270	1.003	0.294	-1.617	-0.454	0.590	1.855	3221	
539.037	-29.168	-105.760	1.563	0.000	-3.142	0.431	0.574	0.113	0.064	0.286	0.182	-0.137	-0.270	1.004	0.294	-1.617	-0.455	0.589	1.855	3226	
539.031	-29.168	-105.894	1.563	0.000	-3.142	0.434	0.620	0.114	0.049	0.286	0.181	-0.136	-0.270	1.004	0.294	-1.617	-0.455	0.589	1.856	3228	
539.026	-29.167	-106.027	1.563	0.000	-3.142	0.425	0.674	0.109	0.042	0.286	0.181	-0.135	-0.270	1.004	0.294	-1.617	-0.455	0.589	1.856	3230	
539.022	-29.167	-106.160	1.563	0.000	-3.142	0.422	0.647	0.111	0.089	0.284	0.176	-0.134	-0.270	1.005	0.294	-1.617	-0.455	0.589	1.856	3232	
539.018	-29.166	-106.294	1.563	0.000	-3.141	0.424	0.725	0.110	0.079	0.283	0.174	-0.133	-0.270	1.005	0.294	-1.616	-0.455	0.589	1.856	3234	
539.009	-29.164	-106.563	1.563	-0.000	-3.141	0.228	1.076	-0.053	-0.078	0.275	0.203	-0.119	-0.270	1.006	0.294	-1.616	-0.456	0.588	1.856	3238	
538.968	-29.160	-109.335	1.563	-0.000	-3.141	0.265	1.096	-0.046	-0.097	0.276	0.203	-0.119	-0.270	1.012	0.294	-1.614	-0.460	0.585	1.859	3280	
538.969	-29.160	-109.465	1.563	-0.000	-3.141	0.327	1.014	-0.032	-0.068	0.274	0.207	-0.118	-0.270	1.012	0.294	-1.614	-0.460	0.585	1.860	3282	
538.976	-29.161	-109.721	1.563	-0.000	-3.141	0.351	0.891	-0.023	-0.020	0.270	0.206	-0.117	-0.270	1.013	0.294	-1.614	-0.461	0.585	1.860	3286	
538.982	-29.161	-109.849	1.563	-0.000	-3.141	0.381	0.861	-0.016	-0.009	0.269	0.206	-0.117	-0.270	1.013	0.294	-1.614	-0.461	0.585	1.860	3288	
538.992	-29.162	-109.976	1.563	-0.000	-3.141	0.403	0.751	-0.004	0.041	0.266	0.202	-0.117	-0.270	1.013	0.294	-1.614	-0.461	0.584	1.860	3290	
539.002	-29.164	-110.102	1.563	-0.000	-3.141	0.418	0.725	0.003	0.044	0.266	0.202	-0.116	-0.270	1.013	0.294	-1.614	-0.461	0.584	1.860	3292	
539.012	-29.165	-110.227	1.563	-0.000	-3.142	0.444	0.638	0.021	0.070	0.265	0.201	-0.116	-0.270	1.014	0.294	-1.613	-0.462	0.584	1.860	3294	
539.030	-29.169	-110.479	1.563	-0.000	-3.142	0.498	0.584	0.063	0.062	0.266	0.200	-0.116	-0.270	1.014	0.294	-1.613	-0.462	0.584	1.861	3298	
539.038	-29.171	-110.605	1.563	-0.000	-3.142	0.507	0.590	0.078	0.040	0.267	0.203	-0.116	-0.270	1.014	0.294	-1.613	-0.462	0.584	1.861	3300	
539.045	-29.174	-110.730	1.563	-0.000	-3.142	0.518	0.585	0.094	0.026	0.270	0.205	-0.115	-0.270	1.015	0.294	-1.613	-0.462	0.584	1.861	3302	
539.051	-29.176	-110.856	1.563	-0.000	-3.142	0.529	0.516	0.115	0.039	0.271	0.205	-0.115	-0.270	1.015	0.294	-1.613	-0.463	0.583	1.861	3304	
539.060	-29.178	-110.981	1.563	0.000	-3.142	0.533	0.490	0.133	0.059	0.272	0.204	-0.115	-0.270	1.015	0.294	-1.613	-0.463	0.583	1.861	3306	
539.076	-29.183	-111.230	1.563	0.000	3.142	0.552	0.399	0.174	0.105	0.271	0.199	-0.115	-0.270	1.016	0.294	-1.613	-0.463	0.583	1.862	3310	
539.084	-29.184	-111.355	1.563	0.000	3.142	0.561	0.390	0.192	0.124	0.272	0.195	-0.115	-0.270	1.016	0.294	-1.613	-0.463	0.583	1.862	3312	
539.087	-29.185	-111.417	1.563	0.000	3.142	0.557	0.384	0.202	0.134	0.272	0.193	-0.116	-0.270	1.016	0.294	-1.612	-0.464	0.583	1.862	3314	
539.097	-29.188	-111.605	1.563	0.000	3.142	0.558	0.361	0.210	0.155	0.271	0.192	-0.116	-0.270	1.017	0.294	-1.612	-0.464	0.582	1.862	3316	
539.100	-29.189	-111.667	1.563	0.000	3.142	0.557	0.319	0.214	0.175	0.269	0.191	-0.116	-0.270	1.017	0.294	-1.612	-0.464	0.582	1.862	3318	
539.113	-29.199	-112.101	1.563	0.000	3.142	0.557	0.123	0.208	0.263	0.262	0.186	-0.116	-0.270	1.017	0.294	-1.612	-0.464	0.582	1.862	3322	
539.115	-29.202	-112.225	1.563	0.000	3.142	0.559	0.126	0.204	0.262	0.261	0.186	-0.116	-0.270	1.018	0.294	-1.612	-0.465	0.582	1.863	3326	
539.116	-29.206	-112.348	1.563	0.000	3.142	0.564	0.060	0.202	0.315	0.258	0.182	-0.117	-0.270	1.018	0.294	-1.612	-0.465	0.582	1.863	3328	
539.119	-29.210	-112.472	1.563	0.000	3.142	0.571	0.059	0.197	0.337	0.254	0.181	-0.117	-0.270	1.019	0.294	-1.612	-0.465	0.581	1.863	3330	
539.132	-29.217	-112.713	1.563	0.000	3.142	0.348	0.980	-0.019	0.035	0.267	0.214	-0.130	-0.270	1.019	0.294	-1.611	-0.466	0.581	1.863	3334	
539.065	-29.178	-117.400	1.563	-0.000	3.142	0.353	0.800	0.054	0.170	0.275	0.178	-0.144	-0.270	1.029	0.294	-1.608	-0.473	0.576	1.868	3420	
539.059	-29.186	-117.621	1.563	0.000	-3.142	0.339	0.777	0.077	0.115	0.283	0.181	-0.145	-0.270	1.030	0.294	-1.608	-0.473	0.575	1.869	3426	
539.054	-29.191	-117.798	1.563	0.000	-3.142	0.353	0.825	0.088	0.077	0.286	0.185	-0.146	-0.270	1.030	0.294	-1.607	-0.474	0.575	1.869	3430	
539.052	-29.196	-117.927	1.563	0.000	-3.142	0.364	0.770	0.101	0.067	0.286	0.189	-0.146	-0.270	1.031	0.294	-1.607	-0.474	0.575	1.869	3433	
539.054	-29.198	-118.012	1.563	0.000	-3.142	0.367	0.767	0.106	0.071	0.286	0.188	-0.147	-0.270	1.031	0.294	-1.607	-0.474	0.575	1.869	3435	
539.053	-29.200	-118.098	1.563	0.000	-3.142	0.380	0.862	0.100	-0.006	0.289	0.196	-0.147	-0.270	1.031	0.294	-1.607	-0.474	0.575	1.869	3437	
539.056	-29.201	-118.268	1.563	0.000	-3.142	0.409	0.861	0.096	-0.028	0.290	0.203	-0.148	-0.270	1.031	0.294	-1.607	-0.474	0.575	1.869	3439	
539.056	-29.200	-118.353	1.563	0.000	-3.142	0.435	0.896	0.096	-0.067	0.290	0.208	-0.149	-0.270	1.032	0.294	-1.607	-0.474	0.575	1.869	3443	
539.058	-29.199	-118.437	1.563	0.000	-3.142	0.449	0.854	0.096	-0.047	0.288	0.208	-0.149	-0.270	1.032	0.294	-1.607	-0.475	0.575	1.870	3445	
539.061	-29.198	-118.519	1.563	0.000	-3.142	0.453	0.762	0.098	-0.004	0.287	0.205	-0.150	-0.270	1.032	0.294	-1.607	-0.475	0.575	1.870	3447	
539.064	-29.198	-118.599	1.563	0.000	-3.142	0.447	0.703	0.094	0.038	0.284	0.200	-0.150	-0.270	1.032	0.294	-1.607	-0.475	0.574	1.870	3449	
539.067	-29.195	-118.799	1.563	0.000	-3.142	0.464	0.628	0.093	0.060	0.281	0.195	-0.150	-0.270	1.032	0.294	-1.607	-0.475	0.574	1.870	3454	
539.068	-29.195	-118.837	1.563	0.000	-3.142	0.462	0.546	0.095	0.103	0.279	0.192	-0.151	-0.270	1.033	0.294	-1.607	-0.475	0.574	1.870	3456	
539.069	-29.195	-118.914	1.563	0.000	-3.142	0.462	0.470	0.100	0.138	0.279	0.189	-0.151	-0.270	1.033	0.294	-1.606	-0.475	0.574	1.870	3457	
539.069	-29.196	-118.991	1.563	0.000	-3.142	0.462	0.466	0.101	0.143	0.279	0.188	-0.151	-0.270	1.033	0.294	-1.606	-0.475	0.574	1.870	3459	
539.066	-29.196	-119.067	1.563	0.000	-3.142	0.470	0.436	0.107	0.134	0.279	0.187	-0.151	-0.270	1.033	0.294	-1.606	-0.476	0.574	1.870	3461	
539.065	-29.196	-119.141	1.563	0.000	-3.142	0.471	0.388	0.124	0.158	0.279	0.182	-0.151	-0.270	1.033	0.294	-1.606	-0.476	0.574	1.870	3463	
539.060	-29.196	-119.254	1.563	0.000	-3.142	0.463	0.417	0.126	0.142	0.280	0.182	-0.151	-0.270	1.034	0.294	-1.606	-0.476	0.574	1.871	3467	
539.057	-29.197	-119.328	1.563	0.000	-3.142	0.451	0.408	0.130	0.158	0.282	0.181	-0.151	-0.270	1.034	0.294	-1.606	-0.476	0.574	1.871	3468	
539.055	-29.198	-119.401	1.563	0.000	-3.142	0.447	0.376	0.134	0.167	0.282	0.180	-0.151	-0.270	1.034	0.294	-1.606	-0.476	0.574	1.871	3470	
539.054	-29.198	-119.438	1.563	0.000	-3.142	0.446	0.346	0.144	0.174	0.283	0.181	-0.151	-0.270	1.034	0.294	-1.606	-0.476	0.574	1.871	3472	
539.054	-29.200	-119.511	1.563	0.000	-3.142	0.440	0.333	0.148	0.189	0.283	0.181	-0.151	-0.270	1.034	0.294	-1.606	-0.476	0.573	1.871	3473	
539.055	-29.200	-119.547	1.563	0.000	-3.142	0.415	0.261	0.162	0.243	0.281	0.175	-0.151	-0.270	1.034	0.294	-1.606	-0.476	0.573	1.871	3475	
539.061	-29.203	-119.687	1.563	0.000	-3.142	0.414	0.355	0.145	0.207	0.288	0.169	-0.146	-0.270	1.034	0.294	-1.606	-0.477	0.573	1.871	3478	
539.070	-29.164	-122.181	1.563	-0.000	3.142	0.347	0.534	0.089	0.085	0.295	0.168	-0.138	-0.270	1.040	0.294	-1.604	-0.481	0.570	1.874	3567	
539.065	-29.166	-122.238	1.563	0.000	3.142	0.399	0.791	0.091	0.048	0.297	0.160	-0.127	-0.270	1.040	0.294	-1.604	-0.481	0.570	1.874	3570	
539.076	-29.213	-122.839	1.563	0.000	-3.142	0.398	0.737	0.094	0.081	0.295	0.157	-0.127	-0.270	1.041	0.294	-1.603	-0.482	0.570	1.874	3612	
539.075	-29.215	-122.859	1.563	0.000	-3.142	0.388	0.708	0.093	0.104	0.293	0.154	-0.127	-0.270	1.041	0.294	-1.603	-0.482	0.570	1.874	3614	
539.074	-29.216	-122.878	1.563	0.000	-3.142	0.382	0.674	0.092	0.127	0.291	0.152	-0.127	-0.270	1.042	0.294	-1.603	-0.482	0.570	1.874	3616	
539.074	-29.218	-122.896	1.563	0.000	-3.142	0.377	0.628	0.093	0.151	0.289	0.150	-0.127	-0.270	1.042	0.294	-1.603	-0.482	0.570	1.874	3618	
539.068	-29.221	-122.941	1.563	0.000	-3.142	0.373	0.725	0.086	0.128	0.290	0.151	-0.126	-0.270	1.042	0.294	-1.603	-0.482	0.570	1.874	3622	
539.145	-29.201	-123.215	1.563	0.000	3.141	0.366	0.593	0.073	0.129	0.270	0.146	-0.092	-0.270	1.042	0.294	-1.603	-0.482	0.569	1.875	3719	
539.150	-29.200	-123.214	1.563	0.000	3.141	0.369	0.573	0.077	0.135	0.269	0.145	-0.092	-0.270	1.042	0.294	-1.603	-0.482	0.569	1.875	3721	
539.159	-29.199	-123.213	1.563	0.000	3.141	0.362	0.496	0.087	0.159	0.268	0.142	-0.089	-0.270	1.042	0.294	-1.603	-0.482	0.569	1.875	3725	
539.168	-29.197	-123.212	1.563	0.000	3.141	0.379	0.447	0.101	0.180	0.267	0.140	-0.088	-0.270	1.042	0.294	-1.603	-0.482	0.569	1.875	3727	
539.173	-29.195	-123.212	1.563	0.000	3.141	0.388	0.435	0.106	0.187	0.265	0.139	-0.087	-0.270	1.042	0.294	-1.603	-0.482	0.569	1.875	3732	
539.176	-29.194	-123.212	1.563	-0.000	3.141	0.392	0.437	0.108	0.186	0.263	0.139	-0.086	-0.270	1.042	0.294	-1.603	-0.482	0.569	1.875	3734	
539.177	-29.194	-123.212	1.563	-0.000	3.141	0.398	0.444	0.109	0.188	0.261	0.138	-0.086	-0.270	1.042	0.294	-1.603	-0.482	0.569	1.875	3736	
539.179	-29.192	-123.212	1.563	-0.000	3.141	0.405	0.446	0.111	0.190	0.260	0.138	-0.085	-0.270	1.042	0.294	-1.603	-0.482	0.569	1.875	3737	
539.179	-29.192	-123.212	1.563	-0.000	3.141	0.404	0.464	0.109	0.213	0.255	0.135	-0.084	-0.270	1.042	0.294	-1.603	-0.482	0.569	1.875	3739	
539.179	-29.190	-123.213	1.563	-0.000	3.141	0.401	0.485	0.104	0.219	0.252	0.133	-0.084	-0.270	1.042	0.294	-1.603	-0.482	0.569	1.875	3743	
539.144	-29.183	-123.222	1.563	-0.000	3.141	0.358	0.738	0.079	0.102	0.241	0.076	-0.078	-0.270	1.042	0.294	-1.603	-0.482	0.569	1.875	3790	
539.144	-29.183	-123.221	1.563	-0.000	3.141	0.394	0.641	0.098	0.153	0.238	0.073	-0.077	-0.270	1.042	0.294	-1.603	-0.482	0.569	1.875	3794	
539.144	-29.182	-123.221	1.563	-0.000	3.141	0.398	0.620	0.104	0.166	0.238	0.072	-0.077	-0.270	1.042	0.294	-1.603	-0.482	0.569	1.875	3804	
539.144	-29.182	-123.221	1.563	-0.000	3.141	0.395	0.601	0.107	0.179	0.237	0.072	-0.077	-0.270	1.042	0.294	-1.603	-0.482	0.569	1.875	3806	
539.144	-29.182	-123.221	1.563	-0.000	3.141	0.398	0.587	0.112	0.189	0.237	0.071	-0.077	-0.270	1.042	0.294	-1.603	-0.482	0.569	1.875	3808	
539.144	-29.181	-123.221	1.563	-0.000	3.141	0.398	0.565	0.120	0.208	0.237	0.070	-0.076	-0.270	1.042	0.294	-1.603	-0.482	0.569	1.875	3810	
539.144	-29.182	-123.222	1.563	-0.000	3.141	0.395	0.551	0.122	0.216	0.237	0.069	-0.076	-0.270	1.042	0.294	-1.603	-0.482	0.569	1.875	3816	
539.144	-29.182	-123.222	1.563	-0.000	3.141	0.395	0.557	0.123	0.214	0.237	0.069	-0.076	-0.270	1.042	0.294	-1.603	-0.482	0.569	1.875	3818	
539.143	-29.182	-123.222	1.563	-0.000	3.141	0.393	0.560	0.122	0.213	0.236	0.069	-0.076	-0.270	1.042	0.294	-1.603	-0.482	0.569	1.875	3820	
539.143	-29.182	-123.223	1.563	-0.000	3.141	0.389	0.630	0.109	0.185	0.235	0.068	-0.076	-0.270	1.042	0.294	-1.603	-0.482	0.569	1.875	3822	
539.142	-29.182	-123.225	1.563	-0.000	3.141	0.401	0.751	0.103	0.147	0.237	0.069	-0.076	-0.270	1.042	0.294	-1.603	-0.482	0.569	1.875	3828	
539.139	-29.181	-123.228	1.563	-0.000	3.141	0.407	0.827	0.097	0.101	0.238	0.073	-0.077	-0.270	1.042	0.294	-1.603	-0.482	0.569	1.875	3830	
539.136	-29.180	-123.231	1.563	-0.000	3.141	0.401	0.834	0.092	0.080	0.239	0.075	-0.078	-0.270	1.042	0.294	-1.603	-0.482	0.569	1.875	3832	
539.135	-29.179	-123.233	1.563	-0.000	3.141	0.368	0.823	0.078	0.080	0.239	0.075	-0.080	-0.270	1.042	0.294	-1.603	-0.482	0.569	1.875	3834	
539.130	-29.178	-123.240	1.563	-0.000	3.141	0.355	0.848	0.070	0.065	0.239	0.076	-0.081	-0.270	1.042	0.294	-1.603	-0.482	0.569	1.875	3838	
539.126	-29.176	-123.246	1.563	-0.000	3.141	0.355	0.861	0.066	0.054	0.240	0.077	-0.081	-0.270	1.042	0.294	-1.603	-0.482	0.569	1.875	3840	
539.053	-29.126	-123.359	1.563	-0.000	-3.142	0.405	0.599	0.087	0.173	0.236	0.082	-0.090	-0.270	1.043	0.294	-1.603	-0.482	0.569	1.875	3888	
